!!!COM: Haydn, Franz Joseph
!!!OPR: Symphony in E-flat Major
!!!OTL: Affettuoso 
!!!OMV: 4
!!!SCT: H I:91
!!!SCA: Thematisch-bibliographisches Werkevererzeichnis (A. van Hoboken)
!!!YOR: Dover Edition
!!!EED: Frances Bennion
!!!ENC: Frances Bennion
!!!CDT: 1732/3/31/-1809/5/31/
!!!OCY: Österreich
!!!YEC: Copyright (c) 1994, 2000 Center for Computer Assisted Research in the Humanities
!!!YEM: Rights to all derivative editions reserved.
!!!YEM: Refer to licensing agreement for further details.
!!!YEN: United States of America
**kern	**kern	**kern	**kern	**kern	**kern	**kern	**kern	**kern	**kern	**kern	**kern
*k[b-e-a-]	*k[b-e-a-]	*k[b-e-a-]	*k[b-e-a-]	*k[b-e-a-]	*k[b-e-a-]	*k[b-e-a-]	*k[b-e-a-]	*k[]	*k[]	*k[b-e-a-]	*k[b-e-a-]
*E-:	*E-:	*E-:	*E-:	*E-:	*E-:	*E-:	*E-:	*E-:	*E-:	*E-:	*E-:
*clefF	*clefC3	*clefF4	*clefF4	*clefF	*clefF	*clefF4	*clefF4	*clefF	*clefF	*clefF	*clefF
*M2/2	*M2/2	*M2/2	*M2/2	*M2/2	*M2/2	*M2/2	*M2/2	*M2/2	*M2/2	*M2/2	*M2/2
*tb8	*tb8	*tb8	*tb8	*tb8	*tb8	*tb8	*tb8	*tb8	*tb8	*tb8	*tb8
=1	=1	=1	=1	=1	=1	=1	=1	=1	=1	=1	=1
1r	2e-	1r	1r	1r	1r	1r	1r	1r	1r	2b-	8e-
.	.	.	.	.	.	.	.	.	.	.	8b-
.	.	.	.	.	.	.	.	.	.	.	8g
.	.	.	.	.	.	.	.	.	.	.	8b-
.	2r	.	.	.	.	.	.	.	.	4gg	8e-
.	.	.	.	.	.	.	.	.	.	.	8b-
.	.	.	.	.	.	.	.	.	.	4ee-	8g
.	.	.	.	.	.	.	.	.	.	.	8b-
=2	=2	=2	=2	=2	=2	=2	=2	=2	=2	=2	=2
1r	4B-	1r	1r	1r	1r	1r	1r	1r	1r	4dd	8f
.	.	.	.	.	.	.	.	.	.	.	8b-
.	4r	.	.	.	.	.	.	.	.	4ccc	8a-
.	.	.	.	.	.	.	.	.	.	.	8b-
.	4e-	.	.	.	.	.	.	.	.	4bb-	8g
.	.	.	.	.	.	.	.	.	.	.	8b-
.	4r	.	.	.	.	.	.	.	.	4r	8e-
.	.	.	.	.	.	.	.	.	.	.	8g
=3	=3	=3	=3	=3	=3	=3	=3	=3	=3	=3	=3
1r	2A-	1r	1r	1r	1r	1r	1r	1r	1r	4aa-	8A-
.	.	.	.	.	.	.	.	.	.	.	8f
.	.	.	.	.	.	.	.	.	.	4r	8c
.	.	.	.	.	.	.	.	.	.	.	8f
.	2r	.	.	.	.	.	.	.	.	4ff	8A-
.	.	.	.	.	.	.	.	.	.	.	8f
.	.	.	.	.	.	.	.	.	.	4r	8c
.	.	.	.	.	.	.	.	.	.	.	8f
=4	=4	=4	=4	=4	=4	=4	=4	=4	=4	=4	=4
1r	2B-	1r	1r	1r	1r	1r	1r	1r	1r	8ee-	4B-
.	.	.	.	.	.	.	.	.	.	8dd	.
.	.	.	.	.	.	.	.	.	.	8cc	2.r
.	.	.	.	.	.	.	.	.	.	8b-	.
.	2r	.	.	.	.	.	.	.	.	8a	.
.	.	.	.	.	.	.	.	.	.	8b-	.
.	.	.	.	.	.	.	.	.	.	8cc	.
.	.	.	.	.	.	.	.	.	.	8b-	.
=5	=5	=5	=5	=5	=5	=5	=5	=5	=5	=5	=5
1r	2e-	1r	1r	1r	1r	1r	1r	1r	1r	2b-	8e-
.	.	.	.	.	.	.	.	.	.	.	8b-
.	.	.	.	.	.	.	.	.	.	.	8g
.	.	.	.	.	.	.	.	.	.	.	8b-
.	2r	.	.	.	.	.	.	.	.	4gg	8e-
.	.	.	.	.	.	.	.	.	.	.	8b-
.	.	.	.	.	.	.	.	.	.	4ee-	8g
.	.	.	.	.	.	.	.	.	.	.	8b-
=6	=6	=6	=6	=6	=6	=6	=6	=6	=6	=6	=6
1r	4B-	1r	1r	1r	1r	1r	1r	1r	1r	4dd	8f
.	.	.	.	.	.	.	.	.	.	.	8b-
.	4r	.	.	.	.	.	.	.	.	4ccc	8a-
.	.	.	.	.	.	.	.	.	.	.	8b-
.	4e-	.	.	.	.	.	.	.	.	4bb-	8g
.	.	.	.	.	.	.	.	.	.	.	8b-
.	4r	.	.	.	.	.	.	.	.	4r	8e-
.	.	.	.	.	.	.	.	.	.	.	8g
=7	=7	=7	=7	=7	=7	=7	=7	=7	=7	=7	=7
1r	4A-	1r	1r	1r	1r	1r	1r	1r	1r	4aa-	8A-
.	.	.	.	.	.	.	.	.	.	.	8f
.	4r	.	.	.	.	.	.	.	.	4r	8c
.	.	.	.	.	.	.	.	.	.	.	8f
.	4B-	.	.	.	.	.	.	.	.	4dd	8B-
.	.	.	.	.	.	.	.	.	.	.	8f
.	4r	.	.	.	.	.	.	.	.	4r	8d
.	.	.	.	.	.	.	.	.	.	.	8B-
=8	=8	=8	=8	=8	=8	=8	=8	=8	=8	=8	=8
4r	4E-	1r	1r	4r	4r	4r	4r	4r	4r	4ee-	4G 4e-
4bb-	2.r	.	.	4bb-	4gg	4B-	4G	4gg	4ee	2.r	2.r
4aa-	.	.	.	4aa-	4ff	4A-	4F	4ff	4dd	.	.
4ddd	.	.	.	4ff	4dd	4F	4BB-	4dd	4g	.	.
=9	=9	=9	=9	=9	=9	=9	=9	=9	=9	=9	=9
4eee-	1r	8E-	2E-	4ee-	4ee-	4E-	4EE-	4ee	4e	2B-	2B-
.	.	8B-	.	.	.	.	.	.	.	.	.
2.r	.	8G	.	2.r	2.r	2.r	2.r	2.r	2.r	.	.
.	.	8B-	.	.	.	.	.	.	.	.	.
.	.	8E-	2r	.	.	.	.	.	.	4g	4g
.	.	8B-	.	.	.	.	.	.	.	.	.
.	.	8G	.	.	.	.	.	.	.	4e-	4e-
.	.	8B-	.	.	.	.	.	.	.	.	.
=10	=10	=10	=10	=10	=10	=10	=10	=10	=10	=10	=10
1r	1r	8F	4BB-	1r	1r	1r	1r	1r	1r	4d	4d
.	.	8B-	.	.	.	.	.	.	.	.	.
.	.	8A-	4r	.	.	.	.	.	.	4cc	4cc
.	.	8B-	.	.	.	.	.	.	.	.	.
.	.	8G	4E-	.	.	.	.	.	.	4b-	4b-
.	.	8B-	.	.	.	.	.	.	.	.	.
.	.	8E-	4r	.	.	.	.	.	.	4r	4r
.	.	8G	.	.	.	.	.	.	.	.	.
=11	=11	=11	=11	=11	=11	=11	=11	=11	=11	=11	=11
1r	1r	8AA-	4AA-	1r	1r	1r	1r	1r	1r	4a-	4a-
.	.	8F	.	.	.	.	.	.	.	.	.
.	.	8C	2.r	.	.	.	.	.	.	4r	4r
.	.	8F	.	.	.	.	.	.	.	.	.
.	.	8AA-	.	.	.	.	.	.	.	4f	4f
.	.	8F	.	.	.	.	.	.	.	.	.
.	.	8C	.	.	.	.	.	.	.	4r	4r
.	.	8F	.	.	.	.	.	.	.	.	.
=12	=12	=12	=12	=12	=12	=12	=12	=12	=12	=12	=12
1r	1r	4BB-	4BB-	1r	1r	1r	1r	1r	1r	8e-	8e-
.	.	.	.	.	.	.	.	.	.	8d	8d
.	.	2.r	2.r	.	.	.	.	.	.	8c	8c
.	.	.	.	.	.	.	.	.	.	8B-	8B-
.	.	.	.	.	.	.	.	.	.	8A	8A
.	.	.	.	.	.	.	.	.	.	8B-	8B-
.	.	.	.	.	.	.	.	.	.	8c	8c
.	.	.	.	.	.	.	.	.	.	8B-	8B-
=13	=13	=13	=13	=13	=13	=13	=13	=13	=13	=13	=13
1r	1r	8E-	4E-	1r	1r	1r	1r	1r	1r	2B-	2B-
.	.	8B-	.	.	.	.	.	.	.	.	.
.	.	8G	2.r	.	.	.	.	.	.	.	.
.	.	8B-	.	.	.	.	.	.	.	.	.
.	.	8E-	.	.	.	.	.	.	.	4g	4g
.	.	8B-	.	.	.	.	.	.	.	.	.
.	.	8G	.	.	.	.	.	.	.	4e-	4e-
.	.	8B-	.	.	.	.	.	.	.	.	.
=14	=14	=14	=14	=14	=14	=14	=14	=14	=14	=14	=14
1r	1r	8F	4BB-	1r	1r	1r	1r	1r	1r	4d	4d
.	.	8B-	.	.	.	.	.	.	.	.	.
.	.	8A-	4r	.	.	.	.	.	.	4cc	4cc
.	.	8B-	.	.	.	.	.	.	.	.	.
.	.	8G	4E-	.	.	.	.	.	.	4b-	4b-
.	.	8B-	.	.	.	.	.	.	.	.	.
.	.	8E-	4r	.	.	.	.	.	.	4r	4r
.	.	8G	.	.	.	.	.	.	.	.	.
=15	=15	=15	=15	=15	=15	=15	=15	=15	=15	=15	=15
1r	1r	8AA-	4AA-	1r	1r	1r	1r	1r	1r	4a-	4a-
.	.	8F	.	.	.	.	.	.	.	.	.
.	.	8C	4r	.	.	.	.	.	.	4r	4r
.	.	8F	.	.	.	.	.	.	.	.	.
.	.	8BB-	4BB-	.	.	.	.	.	.	4d	4d
.	.	8F	.	.	.	.	.	.	.	.	.
.	.	8D	4r	.	.	.	.	.	.	4r	4r
.	.	8BB-	.	.	.	.	.	.	.	.	.
=16	=16	=16	=16	=16	=16	=16	=16	=16	=16	=16	=16
[1ee-	8B-	4E-	4E-	[1ee-	[1g	[1B-	[1G	[1cc	[1e	2G 2e-	8G 8e-
.	8B-	.	.	.	.	.	.	.	.	.	8e- 8G
.	8B-	4E-	4E-	.	.	.	.	.	.	.	8e- 8G
.	8B-	.	.	.	.	.	.	.	.	.	8e- 8G
.	8B-	4E-	4E-	.	.	.	.	.	.	4a-	8e- 8G
.	8B-	.	.	.	.	.	.	.	.	.	8G 8e-
.	8B-	4E-	4E-	.	.	.	.	.	.	4g	8G 8e-
.	8B-	.	.	.	.	.	.	.	.	.	8e- 8G
=17	=17	=17	=17	=17	=17	=17	=17	=17	=17	=17	=17
1ee-]	8B-	4E-	4E-	1ee-]	1g]	1B-]	1G]	1cc]	1e]	4cc	8G 8e-
.	8B-	.	.	.	.	.	.	.	.	.	8e- 8G
.	8B-	4E-	4E-	.	.	.	.	.	.	4b-	8e- 8G
.	8B-	.	.	.	.	.	.	.	.	.	8G 8e-
.	8B-	4E-	4E-	.	.	.	.	.	.	4dd	8G 8e-
.	8B-	.	.	.	.	.	.	.	.	.	8G 8e-
.	8B-	4E-	4E-	.	.	.	.	.	.	4ee-	8e- 8G
.	8B-	.	.	.	.	.	.	.	.	.	8G 8e-
=18	=18	=18	=18	=18	=18	=18	=18	=18	=18	=18	=18
[1aa-	8f	4EE-	4EE-	[1dd	[1f	[1d	[1A-	[1dd	[1g	2f 2A-	8A- 8d
.	8f	.	.	.	.	.	.	.	.	.	8A- 8d
.	8f	4E-	4E-	.	.	.	.	.	.	.	8A- 8d
.	8f	.	.	.	.	.	.	.	.	.	8A- 8d
.	8f	4E-	4E-	.	.	.	.	.	.	4cc	8A- 8d
.	8f	.	.	.	.	.	.	.	.	.	8A- 8d
.	8f	4E-	4E-	.	.	.	.	.	.	4b-	8A- 8d
.	8f	.	.	.	.	.	.	.	.	.	8A- 8d
=19	=19	=19	=19	=19	=19	=19	=19	=19	=19	=19	=19
1aa-]	8f	4E-	4E-	1dd]	1f]	1d]	1A-]	1dd]	1g_	4ee-	8A- 8d
.	8f	.	.	.	.	.	.	.	.	.	8A- 8d
.	8f	4E-	4E-	.	.	.	.	.	.	4dd	8A- 8d
.	8f	.	.	.	.	.	.	.	.	.	8A- 8d
.	8f	4E-	4E-	.	.	.	.	.	.	4bb-	8A- 8d
.	8f	.	.	.	.	.	.	.	.	.	8A- 8d
.	8f	4E-	4E-	.	.	.	.	.	.	4aa-	8A- 8d
.	8f	.	.	.	.	.	.	.	.	.	8A- 8d
=20	=20	=20	=20	=20	=20	=20	=20	=20	=20	=20	=20
[1gg	8g 8B-	4EE-	4EE-	[1dd-	[1b-	[1d-	[1G	[1ee	1g_	2g 2B-	8d-
.	8g 8B-	.	.	.	.	.	.	.	.	.	8d-
.	8g 8B-	4E-	4E-	.	.	.	.	.	.	.	8d-
.	8B- 8g	.	.	.	.	.	.	.	.	.	8d-
.	8g 8B-	4E-	4E-	.	.	.	.	.	.	4cc	8d-
.	8g 8B-	.	.	.	.	.	.	.	.	.	8d-
.	8g 8B-	4E-	4E-	.	.	.	.	.	.	4dd-	8d-
.	8B- 8g	.	.	.	.	.	.	.	.	.	8d-
=21	=21	=21	=21	=21	=21	=21	=21	=21	=21	=21	=21
1gg]	8g 8B-	4E-	4E-	1dd-]	1b-]	1d-]	1G]	1ee]	1g]	4aa-	8d-
.	8B- 8g	.	.	.	.	.	.	.	.	.	8d-
.	8B- 8g	4E-	4E-	.	.	.	.	.	.	4gg	8d-
.	8B- 8g	.	.	.	.	.	.	.	.	.	8d-
.	8B- 8g	4E-	4E-	.	.	.	.	.	.	4ccc	8d-
.	8B- 8g	.	.	.	.	.	.	.	.	.	8d-
.	8B- 8g	4E-	4E-	.	.	.	.	.	.	4bb-	8d-
.	8B- 8g	.	.	.	.	.	.	.	.	.	8d-
=22	=22	=22	=22	=22	=22	=22	=22	=22	=22	=22	=22
[1aa-	8a- 8c	4EE-	4EE-	[1cc	[1a-	[1c	[1A-	[1cc	[1cc	2c	8a- 8c
.	8a- 8c	.	.	.	.	.	.	.	.	.	8a- 8c
.	8a- 8c	4E-	4E-	.	.	.	.	.	.	.	8c 8a-
.	8c 8a-	.	.	.	.	.	.	.	.	.	8a- 8c
.	8a- 8c	4E-	4E-	.	.	.	.	.	.	4dd	8a- 8c
.	8a- 8c	.	.	.	.	.	.	.	.	.	8c 8a-
.	8a- 8c	4E-	4E-	.	.	.	.	.	.	4ee-	8c 8a-
.	8a- 8c	.	.	.	.	.	.	.	.	.	8a- 8c
=23	=23	=23	=23	=23	=23	=23	=23	=23	=23	=23	=23
1aa-]	8c 8a-	4E-	4E-	1cc]	1a-]	1c]	1A-]	1cc]	1cc]	4gg	8c 8a-
.	8a- 8c	.	.	.	.	.	.	.	.	.	8a- 8c
.	8a- 8c	4E-	4E-	.	.	.	.	.	.	4aa-	8c 8a-
.	8a- 8c	.	.	.	.	.	.	.	.	.	8c 8a-
.	8a- 8c	4E-	4E-	.	.	.	.	.	.	4bb	8a- 8c
.	8c 8a-	.	.	.	.	.	.	.	.	.	8a- 8c
.	8a- 8c	4E-	4E-	.	.	.	.	.	.	4ccc	8a- 8c
.	8c 8a-	.	.	.	.	.	.	.	.	.	8a- 8c
=24	=24	=24	=24	=24	=24	=24	=24	=24	=24	=24	=24
[1ff	8B- 8f	4EE-	4EE-	[1dd	[1a-	[1d	1F	[1dd	[1g	2A- 2d	8d 8A-
.	8B- 8f	.	.	.	.	.	.	.	.	.	8A- 8d
.	8f 8B-	4E-	4E-	.	.	.	.	.	.	.	8A- 8d
.	8B- 8f	.	.	.	.	.	.	.	.	.	8A- 8d
.	8B- 8f	4E-	4E-	.	.	.	.	.	.	8ccc	8A- 8d
.	8B- 8f	.	.	.	.	.	.	.	.	8bb-	8A- 8d
.	8f 8B-	4E-	4E-	.	.	.	.	.	.	8ccc	8A- 8d
.	8f 8B-	.	.	.	.	.	.	.	.	8bb-	8A- 8d
=25	=25	=25	=25	=25	=25	=25	=25	=25	=25	=25	=25
1ff]	8f 8B-	4E-	4E-	1dd]	1a-]	1d]	1A-	1dd]	1g]	8aa-	8A- 8d
.	8f 8B-	.	.	.	.	.	.	.	.	8gg	8A- 8d
.	8B- 8f	4E-	4E-	.	.	.	.	.	.	8ff	8A- 8d
.	8f 8B-	.	.	.	.	.	.	.	.	8ee-	8A- 8d
.	8f 8B-	4E-	4E-	.	.	.	.	.	.	8dd	8A- 8d
.	8f 8B-	.	.	.	.	.	.	.	.	8cc	8A- 8d
.	8f 8B-	4E-	4E-	.	.	.	.	.	.	8b-	8A- 8d
.	8B- 8f	.	.	.	.	.	.	.	.	8a-	8A- 8d
=26	=26	=26	=26	=26	=26	=26	=26	=26	=26	=26	=26
4gg	8e-	4E-	4E-	4ee-	4g	4e-	4G	4ee	4cc	4g	4e- 4G
.	8b-	.	.	.	.	.	.	.	.	.	.
4gg	8b-	4B-	4B-	4gg	4ee-	4e-	4G	4ee	4cc	4r	4r
.	8b-	.	.	.	.	.	.	.	.	.	.
4r	8b-	4D	4D	4r	4r	4r	4r	4r	4r	8bb-	8bb-
.	8b-	.	.	.	.	.	.	.	.	8aa	8aa
4ddd	8b-	4B-	4B-	4aa-	4ff	4BB-	4BB-	4dd	4g	8b-	8b-
.	8b-	.	.	.	.	.	.	.	.	8aa-	8aa-
=27	=27	=27	=27	=27	=27	=27	=27	=27	=27	=27	=27
4eee-	8b-	4E-	4E-	4gg	4ee-	4E-	4E-	4ee	4cc	4gg	4gg
.	8b-	.	.	.	.	.	.	.	.	.	.
4bb-	8b-	4B-	4B-	4gg	4ee-	4E-	4E-	4ee	4cc	4r	4r
.	8b-	.	.	.	.	.	.	.	.	.	.
4r	8b-	4D	4D	4r	4r	4r	4r	4r	4r	8bb-	8bb-
.	8b-	.	.	.	.	.	.	.	.	8aa	8aa
4ddd	8b-	4B-	4B-	4aa-	4ff	4BB-	4BB-	4dd	4g	8b-	8b-
.	8b-	.	.	.	.	.	.	.	.	8aa-	8aa-
=28	=28	=28	=28	=28	=28	=28	=28	=28	=28	=28	=28
4eee-	8b-	4E-	4E-	4gg	4ee-	4E-	4E-	4ee	4cc	4gg	4gg
.	8b-	.	.	.	.	.	.	.	.	.	.
4bb-	8b-	4B-	4B-	4gg	4ee-	4E-	4E-	4ee	4cc	4r	4r
.	8b-	.	.	.	.	.	.	.	.	.	.
4r	8b-	4D	4D	4r	4r	4r	4r	4r	4r	8bb-	8bb-
.	8b-	.	.	.	.	.	.	.	.	8aa	8aa
4ddd	8b-	4B-	4B-	4aa-	4ff	4BB-	4BB-	4dd	4g	8b-	8b-
.	8b-	.	.	.	.	.	.	.	.	8aa-	8aa-
=29	=29	=29	=29	=29	=29	=29	=29	=29	=29	=29	=29
4eee-	8b-	4E-	4E-	4gg	4ee-	4E-	4E-	4ee	4cc	4gg	4gg
.	8b-	.	.	.	.	.	.	.	.	.	.
4bb-	8b-	4B-	4B-	4gg	4ee-	4E-	4E-	4ee	4cc	4gg	4gg
.	8b-	.	.	.	.	.	.	.	.	.	.
4r	8g	4BB	4BB	4r	4r	4r	4r	4r	4r	8gg	8gg
.	8g	.	.	.	.	.	.	.	.	8ff	8ff
4bb	8g	4G	4G	4ff	4dd	4GG	4GG	4dd	4dd	8g	8g
.	8g	.	.	.	.	.	.	.	.	8ff	8ff
=30	=30	=30	=30	=30	=30	=30	=30	=30	=30	=30	=30
4ccc	8g	4C	4C	4ee-	4cc	4C	4C	4cc	4cc	4ee-	4ee-
.	8g	.	.	.	.	.	.	.	.	.	.
4ccc	8g	4E-	4E-	4ccc	4g	4E-	4E-	4cc	4cc	8ee-	8ee-
.	8g	.	.	.	.	.	.	.	.	8ccc	8cc
4r	8g	4D	4D	4r	4r	4D	4D	4r	4r	8ccc	8cc
.	8g	.	.	.	.	.	.	.	.	8bb	8b
4bb	8g	4F	4F	4bb	4dd	4F	4F	4dd	4dd	8bb	8b
.	8g	.	.	.	.	.	.	.	.	8ddd	8dd
=31	=31	=31	=31	=31	=31	=31	=31	=31	=31	=31	=31
4ccc	4g	4E-	4E-	4ccc	4g	4E-	4E-	4cc	4cc	8ddd	8dd
.	.	.	.	.	.	.	.	.	.	8ccc	8cc
4ccc	4e-	4C	4C	4ccc	4ee-	4C	4C	4cc	4cc	8eee-	8ee-
.	.	.	.	.	.	.	.	.	.	8ddd	8dd
4r	4g	4E-	4E-	4r	4r	4E-	4E-	4r	4r	8ccc	8cc
.	.	.	.	.	.	.	.	.	.	8bb-	8b-
4gg	4e	4E	4E	4gg	4b-	4E	4E	4ee	4ee	8aa	8a
.	.	.	.	.	.	.	.	.	.	8gg	8g
=32	=32	=32	=32	=32	=32	=32	=32	=32	=32	=32	=32
4ff	2f	4F	4F	4cc	4a	2F	2F	4dd	4dd	4ff	4f
4ff	.	4A	4A	4cc	4a	.	.	4dd	4dd	4ff	4ff
8gg	2a	4E-	4E-	4r	4r	2E-	2E-	4r	4r	8gg	8gg
8ff	.	.	.	.	.	.	.	.	.	8ff	8ff
8gg	.	4A	4A	4cc	4a	.	.	4dd	4dd	8gg	8gg
8ff	.	.	.	.	.	.	.	.	.	8ff	8ff
=33	=33	=33	=33	=33	=33	=33	=33	=33	=33	=33	=33
8aa	2b-	4D	4D	4dd	4b-	2D	2D	4dd	4g	8aa	8aa
8bb-	.	.	.	.	.	.	.	.	.	8bb-	8bb-
8ff	.	4B-	4B-	4dd	4b-	.	.	4dd	4g	8ff	8ff
8ff	.	.	.	.	.	.	.	.	.	8ff	8ff
8gg	2ee-	4AA	4AA	4r	4r	2AA	2AA	4r	4r	8gg	8gg
8ff	.	.	.	.	.	.	.	.	.	8ff	8ff
8gg	.	4F	4F	4ee-	4cc	.	.	4dd	4dd	8gg	8gg
8ff	.	.	.	.	.	.	.	.	.	8ff	8ff
=34	=34	=34	=34	=34	=34	=34	=34	=34	=34	=34	=34
8ee-	2dd	4BB-	4BB-	4dd	4b-	2BB-	2BB-	4dd	4g	8ee-	8ee-
8dd	.	.	.	.	.	.	.	.	.	8dd	8dd
8cc	.	4F	4F	4dd	4b-	.	.	4dd	4g	8cc	8cc
8b-	.	.	.	.	.	.	.	.	.	8b-	8b-
8gg	2a	4E-	4E-	4r	4r	2E-	2E-	4r	4r	8gg	8gg
8ff	.	.	.	.	.	.	.	.	.	8ff	8ff
8gg	.	4A	4A	4cc	4a	.	.	4dd	4dd	8gg	8gg
8ff	.	.	.	.	.	.	.	.	.	8ff	8ff
=35	=35	=35	=35	=35	=35	=35	=35	=35	=35	=35	=35
8aa	2b-	4D	4D	4dd	4b-	2D	2D	4dd	4g	8aa	8aa
8bb-	.	.	.	.	.	.	.	.	.	8bb-	8bb-
8ff	.	4B-	4B-	4dd	4b-	.	.	4dd	4g	8ff	8ff
8ff	.	.	.	.	.	.	.	.	.	8ff	8ff
8bb	2ee-	4AA	4AA	4r	4r	2AA	2AA	4r	4r	8bb	8bb
8ccc	.	.	.	.	.	.	.	.	.	8ccc	8ccc
8ff	.	4F	4F	4ee-	4cc	.	.	4dd	4dd	8ff	8ff
8ff	.	.	.	.	.	.	.	.	.	8ff	8ff
=36	=36	=36	=36	=36	=36	=36	=36	=36	=36	=36	=36
8ccc#	2.dd	4BB-	4BB-	4dd	4dd	4BB-	4BB-	4dd	4dd	8ccc#	8ccc#
8ddd	.	.	.	.	.	.	.	.	.	8ddd	8ddd
8ccc	.	2B-	2B-	4dd	4dd	2B-	2B-	4dd	4dd	8ccc	8ccc
8bb-	.	.	.	.	.	.	.	.	.	8bb-	8bb-
8aa	.	.	.	4r	4r	.	.	4r	4r	8aa	8aa
8gg	.	.	.	.	.	.	.	.	.	8gg	8gg
8ff	4b-	4G	4G	4ee	4b-	4G	4G	4ee	4ee	8ff	8ff
8ee	.	.	.	.	.	.	.	.	.	8ee	8ee
=37	=37	=37	=37	=37	=37	=37	=37	=37	=37	=37	=37
4ff	4a	4F	4F	4ff	4a	4F	4F	[1dd	[1dd	4ff	4ff
4ccc	4cc	4c	4c	4cc	4cc	4c	4c	.	.	8cc	8cc
.	.	.	.	.	.	.	.	.	.	8ff	8ff
4ddd	4dd	4d	4d	4dd	4dd	4d	4d	.	.	8dd	8dd
.	.	.	.	.	.	.	.	.	.	8ff	8ff
4bb-	4b-	4B-	4B-	4b-	4b-	4B-	4B-	.	.	8b-	8b-
.	.	.	.	.	.	.	.	.	.	8ff	8ff
=38	=38	=38	=38	=38	=38	=38	=38	=38	=38	=38	=38
4ff	4a	4F	4F	4a	4a	4F	4F	1dd_	1dd_	8a	8a
.	.	.	.	.	.	.	.	.	.	8ff	8ff
4ccc#	4cc#	4c#	4c#	4cc#	4cc#	4c#	4c#	.	.	8cc#	8cc#
.	.	.	.	.	.	.	.	.	.	8ff	8ff
4ddd	4dd	4d	4d	4dd	4dd	4d	4d	.	.	8dd	8dd
.	.	.	.	.	.	.	.	.	.	8ff	8ff
4bb-	4b-	4B-	4B-	4b-	4b-	4B-	4B-	.	.	8b-	8b-
.	.	.	.	.	.	.	.	.	.	8ff	8ff
=39	=39	=39	=39	=39	=39	=39	=39	=39	=39	=39	=39
4aa	4a	4F	4F	4a	4a	4F	4F	1dd_	1dd_	8a	8a
.	.	.	.	.	.	.	.	.	.	8ff	8ff
4eee-	4ee-	4e-	4e-	4ee-	4ee-	4e-	4e-	.	.	8ee-	8ee-
.	.	.	.	.	.	.	.	.	.	8ff	8ff
4ddd	4dd	4d	4d	4dd	4dd	4d	4d	.	.	8dd	8dd
.	.	.	.	.	.	.	.	.	.	8ff	8ff
4bb-	4b-	4B-	4B-	4b-	4b-	4B-	4B-	.	.	8b-	8b-
.	.	.	.	.	.	.	.	.	.	8ff	8ff
=40	=40	=40	=40	=40	=40	=40	=40	=40	=40	=40	=40
4ff	8f	8F	8F	4ff	4ff	8F	8F	4dd]	4dd]	4a	4a
.	8e	8E	8E	.	.	8E	8E	.	.	.	.
2.r	8f	8F	8F	2.r	2.r	8F	8F	2.r	2.r	4ff	4ff
.	8g	8G	8G	.	.	8G	8G	.	.	.	.
.	8f	8F	8F	.	.	8F	8F	.	.	2r	2r
.	8e-	8E-	8E-	.	.	8E-	8E-	.	.	.	.
.	8d	8D	8D	.	.	8D	8D	.	.	.	.
.	8c	8C	8C	.	.	8C	8C	.	.	.	.
=41	=41	=41	=41	=41	=41	=41	=41	=41	=41	=41	=41
1r	2B-	2BB-	2BB-	1r	1r	4BB-	4BB-	1r	1r	2f	2f
.	.	.	.	.	.	2.r	2.r	.	.	.	.
.	2r	2r	2r	.	.	.	.	.	.	4dd	4dd
.	.	.	.	.	.	.	.	.	.	4b-	4b-
=42	=42	=42	=42	=42	=42	=42	=42	=42	=42	=42	=42
1r	2f	2F	2F	1r	1r	1r	1r	1r	1r	4a	4a
.	.	.	.	.	.	.	.	.	.	4gg	4gg
.	4ee-	4e-	4e-	.	.	.	.	.	.	4ff	4ff
.	4cc	4c	4c	.	.	.	.	.	.	4r	4r
=43	=43	=43	=43	=43	=43	=43	=43	=43	=43	=43	=43
1r	4b-	4B-	4B-	1r	1r	1r	1r	1r	1r	2f	2f
.	4ee-	4e-	4e-	.	.	.	.	.	.	.	.
.	4dd	4d	4d	.	.	.	.	.	.	4dd	4dd
.	4r	4r	4r	.	.	.	.	.	.	4b-	4b-
=44	=44	=44	=44	=44	=44	=44	=44	=44	=44	=44	=44
1r	2f	2F	2F	1r	1r	1r	1r	1r	1r	4a	4a
.	.	.	.	.	.	.	.	.	.	4gg	4gg
.	4ee-	4e-	4e-	.	.	.	.	.	.	4ff	4ff
.	4cc	4c	4c	.	.	.	.	.	.	4r	4r
=45	=45	=45	=45	=45	=45	=45	=45	=45	=45	=45	=45
2bb-	2B-	2B-	2B-	2bb-	2dd	2BB-	2BB-	2g	2G	8bb-	2d
.	.	.	.	.	.	.	.	.	.	8b-	.
.	.	.	.	.	.	.	.	.	.	8bb-	.
.	.	.	.	.	.	.	.	.	.	8bb-	.
2r	4g	4g	4g	2r	2r	2r	2r	2r	2r	8bb-	4b-
.	.	.	.	.	.	.	.	.	.	8bb-	.
.	4e-	4e-	4e-	.	.	.	.	.	.	8bb-	4g
.	.	.	.	.	.	.	.	.	.	8bb-	.
=46	=46	=46	=46	=46	=46	=46	=46	=46	=46	=46	=46
2bb-	2B-	2d	2d	2bb-	2dd	2BB-	2BB-	2g	2G	8bb-	2f
.	.	.	.	.	.	.	.	.	.	8b-	.
.	.	.	.	.	.	.	.	.	.	8bb-	.
.	.	.	.	.	.	.	.	.	.	8bb-	.
2r	4g	4g	4g	2r	2r	2r	2r	2r	2r	8bb-	4b-
.	.	.	.	.	.	.	.	.	.	8bb-	.
.	4e-	4e-	4e-	.	.	.	.	.	.	8bb-	4g
.	.	.	.	.	.	.	.	.	.	8bb-	.
=47	=47	=47	=47	=47	=47	=47	=47	=47	=47	=47	=47
1r	4d	4d	4d	1r	1r	4d	4d	1r	1r	8bb-	4f
.	.	.	.	.	.	.	.	.	.	8b-	.
.	4c	4c	4c	.	.	4c	4c	.	.	8bb-	4e-
.	.	.	.	.	.	.	.	.	.	8aa	.
.	4B-	4B-	4B-	.	.	4B-	4B-	.	.	8aa	4d
.	.	.	.	.	.	.	.	.	.	8gg	.
.	4A	4A	4A	.	.	4A	4A	.	.	8gg	4c
.	.	.	.	.	.	.	.	.	.	8ff	.
=48	=48	=48	=48	=48	=48	=48	=48	=48	=48	=48	=48
1r	4G	4G	4G	1r	1r	4G	4G	1r	1r	8ff	4B-
.	.	.	.	.	.	.	.	.	.	8ee-	.
.	4F	4F	4F	.	.	4F	4F	.	.	8ee-	4A
.	.	.	.	.	.	.	.	.	.	8dd	.
.	4E-	4E-	4E-	.	.	4E-	4E-	.	.	8dd	4G 4g
.	.	.	.	.	.	.	.	.	.	8cc	.
.	4D	4D	4D	.	.	4D	4D	.	.	8cc	4f
.	.	.	.	.	.	.	.	.	.	8b	.
=49	=49	=49	=49	=49	=49	=49	=49	=49	=49	=49	=49
1r	4E-	4E-	4E-	1r	1r	4E-	4E-	1r	1r	8b	4g
.	.	.	.	.	.	.	.	.	.	8cc	.
.	4C	4C	4C	.	.	4C	4C	.	.	8ee-	4e-
.	.	.	.	.	.	.	.	.	.	8a	.
.	4D	4D	4D	.	.	4D	4D	.	.	8cc	4f
.	.	.	.	.	.	.	.	.	.	8b-	.
.	4B-	4BB-	4BB-	.	.	4BB-	4BB-	.	.	8ff	4d
.	.	.	.	.	.	.	.	.	.	8dd	.
=50	=50	=50	=50	=50	=50	=50	=50	=50	=50	=50	=50
1r	4E-	4E-	4E-	1r	1r	4E-	4E-	1r	1r	8b	4g
.	.	.	.	.	.	.	.	.	.	8cc	.
.	4C	4C	4C	.	.	4C	4C	.	.	8ee-	4e-
.	.	.	.	.	.	.	.	.	.	8a	.
.	4D	4D	4D	.	.	4D	4D	.	.	8cc	4f
.	.	.	.	.	.	.	.	.	.	8b-	.
.	4B-	4D	4D	.	.	4D	4D	.	.	8f	8f
.	.	.	.	.	.	.	.	.	.	8a-	8a-
=51	=51	=51	=51	=51	=51	=51	=51	=51	=51	=51	=51
1r	4B-	4E-	4E-	1r	1r	4E-	4E-	1r	1r	8a-	8a-
.	.	.	.	.	.	.	.	.	.	8g	8g
.	8A	4F	4F	.	.	4F	4F	.	.	8ee-	8ee-
.	8e-	.	.	.	.	.	.	.	.	8a	8a
.	4d	4G	4G	.	.	4G	4G	.	.	8cc	8cc
.	.	.	.	.	.	.	.	.	.	8b-	8b-
.	8c	4A	4A	.	.	4A	4A	.	.	8gg	8gg
.	8g	.	.	.	.	.	.	.	.	8cc	8cc
=52	=52	=52	=52	=52	=52	=52	=52	=52	=52	=52	=52
1r	4f	4B-	4B-	1r	1r	4B-	4B-	2dd	2g	8ee-	8ee-
.	.	.	.	.	.	.	.	.	.	8dd	8dd
.	4f	4D	4D	.	.	4D	4D	.	.	8bb-	8bb-
.	.	.	.	.	.	.	.	.	.	8ff	8ff
.	4B-	4E-	4E-	.	.	4E-	4E-	2ee	2cc	8ff#	8ff#
.	.	.	.	.	.	.	.	.	.	8gg	8gg
.	8g	4E-	4E-	.	.	4E-	4E-	.	.	8ee-	8ee-
.	8e-	.	.	.	.	.	.	.	.	8cc	8cc
=53	=53	=53	=53	=53	=53	=53	=53	=53	=53	=53	=53
2.bb-	4d	4F	4F	2.dd	2.b-	4F	4F	1dd	1dd	8b-	4b- 4d
.	.	.	.	.	.	.	.	.	.	8dd	.
.	4d	4F	4F	.	.	4F	4F	.	.	8ff	4b- 4d
.	.	.	.	.	.	.	.	.	.	8dd	.
.	4c	4FF	4FF	.	.	4FF	4FF	.	.	4ee-	4e- 4a
4aa	4c	4FF	4FF	4ee-	4cc	4FF	4FF	.	.	4a 4e-	4e- 4a
=54	=54	=54	=54	=54	=54	=54	=54	=54	=54	=54	=54
4bb-	4B-	4BB-	4BB-	4dd	4b-	4BB-	4BB-	4dd	4g	4b- 4d	4b- 4d
2.r	2.r	2.r	2.r	2.r	2.r	2.r	2.r	2.r	2.r	2.r	2.r
=55	=55	=55	=55	=55	=55	=55	=55	=55	=55	=55	=55
1r	1d	1G	1G	1r	1r	1d	1d	1r	1r	2b	1f
.	.	.	.	.	.	.	.	.	.	8gg	.
.	.	.	.	.	.	.	.	.	.	8ff	.
.	.	.	.	.	.	.	.	.	.	8ee-	.
.	.	.	.	.	.	.	.	.	.	8dd	.
=56	=56	=56	=56	=56	=56	=56	=56	=56	=56	=56	=56
1r	4e-	4c	4c	1r	1r	4c	4c	1r	1r	4cc	4e-
.	4e-	4c	4c	.	.	4c	4c	.	.	4cc	4e-
.	2r	2r	2r	.	.	2r	2r	.	.	2r	2r
=57	=57	=57	=57	=57	=57	=57	=57	=57	=57	=57	=57
1r	1c	1F	1F	1r	1r	1c	1c	1r	1r	2a	1e-
.	.	.	.	.	.	.	.	.	.	8ff	.
.	.	.	.	.	.	.	.	.	.	8ee-	.
.	.	.	.	.	.	.	.	.	.	8dd	.
.	.	.	.	.	.	.	.	.	.	8cc	.
=58	=58	=58	=58	=58	=58	=58	=58	=58	=58	=58	=58
1r	4d	4B-	4B-	1r	1r	4B-	4B-	1r	1r	4b-	4d
.	4d	4B-	4B-	.	.	4B-	4B-	.	.	4b-	4d
.	4e-	4E-	4E-	.	.	2r	2r	.	.	8cc	8g
.	.	.	.	.	.	.	.	.	.	8dd	8f
.	4e-	4E-	4E-	.	.	.	.	.	.	8ee-	8e-
.	.	.	.	.	.	.	.	.	.	8cc	8g
=59	=59	=59	=59	=59	=59	=59	=59	=59	=59	=59	=59
1r	4f	4F	4F	1r	1r	1r	1r	1r	1r	4b-	4d
.	4r	4r	4r	.	.	.	.	.	.	4r	4r
.	4c	4F	4F	.	.	.	.	.	.	4f	4A
.	4r	4r	4r	.	.	.	.	.	.	4r	4r
=60	=60	=60	=60	=60	=60	=60	=60	=60	=60	=60	=60
4bb-	4B-	4BB-	4BB-	4bb-	4dd	4F	4BB-	4g	4G	4d	4d
4bb-	4B-	4BB-	4BB-	4bb-	4dd	4F	4BB-	4g	4G	4d	4d
2r	2r	2r	2r	2r	2r	2r	2r	2r	2r	8c	8A
.	.	.	.	.	.	.	.	.	.	8d	8B-
.	.	.	.	.	.	.	.	.	.	8e-	8c
.	.	.	.	.	.	.	.	.	.	8c	8A
=61	=61	=61	=61	=61	=61	=61	=61	=61	=61	=61	=61
4bb-	4B-	4BB-	4BB-	4bb-	4dd	4F	4BB-	4g	4G	4d	4B-
4bb-	4B-	4BB-	4BB-	4bb-	4dd	4F	4BB-	4g	4G	4d	4B-
2r	2r	2r	2r	2r	2r	2r	2r	2r	2r	8e-	8c
.	.	.	.	.	.	.	.	.	.	8f	8d
.	.	.	.	.	.	.	.	.	.	8g	8e-
.	.	.	.	.	.	.	.	.	.	8e-	8c
=62	=62	=62	=62	=62	=62	=62	=62	=62	=62	=62	=62
4bb-	4B-	4BB-	4BB-	4bb-	4dd	4F	4BB-	4g	4G	4f	4d
4bb-	4B-	4BB-	4BB-	4bb-	4dd	4F	4BB-	4g	4G	4f	4d
2r	2r	2r	2r	2r	2r	2r	2r	2r	2r	8b-	2r
.	.	.	.	.	.	.	.	.	.	8a	.
.	.	.	.	.	.	.	.	.	.	8cc	.
.	.	.	.	.	.	.	.	.	.	8b-	.
=63	=63	=63	=63	=63	=63	=63	=63	=63	=63	=63	=63
1r	1r	1r	1r	1r	1r	1r	1r	1r	1r	8dd	1r
.	.	.	.	.	.	.	.	.	.	8cc	.
.	.	.	.	.	.	.	.	.	.	8ee-	.
.	.	.	.	.	.	.	.	.	.	8dd	.
.	.	.	.	.	.	.	.	.	.	8gg	.
.	.	.	.	.	.	.	.	.	.	8ff	.
.	.	.	.	.	.	.	.	.	.	8gg	.
.	.	.	.	.	.	.	.	.	.	8ff	.
=64	=64	=64	=64	=64	=64	=64	=64	=64	=64	=64	=64
1r	1r	1r	1r	1r	1r	1f	1B-	1dd	1g	4.ddd	8B-
.	.	.	.	.	.	.	.	.	.	.	8A
.	.	.	.	.	.	.	.	.	.	.	8c
.	.	.	.	.	.	.	.	.	.	8ccc	8B-
.	.	.	.	.	.	.	.	.	.	8bb-	8d
.	.	.	.	.	.	.	.	.	.	8aa	8c
.	.	.	.	.	.	.	.	.	.	8gg	8e-
.	.	.	.	.	.	.	.	.	.	8ff	8d
=65	=65	=65	=65	=65	=65	=65	=65	=65	=65	=65	=65
1r	1r	1r	1r	1r	1r	[1g	[1e-	[1ee	[1cc	4.gg	8e-
.	.	.	.	.	.	.	.	.	.	.	8d
.	.	.	.	.	.	.	.	.	.	.	8f
.	.	.	.	.	.	.	.	.	.	8ff	8e-
.	.	.	.	.	.	.	.	.	.	8ee-	8g
.	.	.	.	.	.	.	.	.	.	8dd	8f
.	.	.	.	.	.	.	.	.	.	8cc	8e-
.	.	.	.	.	.	.	.	.	.	8b	8d
=66	=66	=66	=66	=66	=66	=66	=66	=66	=66	=66	=66
1r	1r	1r	1r	1r	1r	1g]	1e-]	1ee]	1cc]	8cc	8e-
.	.	.	.	.	.	.	.	.	.	8dd	8f
.	.	.	.	.	.	.	.	.	.	8ee-	8g
.	.	.	.	.	.	.	.	.	.	8dd	8f
.	.	.	.	.	.	.	.	.	.	8cc	8e-
.	.	.	.	.	.	.	.	.	.	8b	8d
.	.	.	.	.	.	.	.	.	.	8b-	8c
.	.	.	.	.	.	.	.	.	.	8g	8B-
=67	=67	=67	=67	=67	=67	=67	=67	=67	=67	=67	=67
1aa	8f	8F	8F	1cc	1a	1e-	1c	1dd	1dd	8f	8A
.	8a	8A	8A	.	.	.	.	.	.	8a	8a
.	8cc	8c	8c	.	.	.	.	.	.	8cc	8cc
.	8b-	8B-	8B-	.	.	.	.	.	.	8b-	8b-
.	8a	8A	8A	.	.	.	.	.	.	8a	8a
.	8g	8G	8G	.	.	.	.	.	.	8g	8g
.	8f	8F	8F	.	.	.	.	.	.	8f	8f
.	8e-	8E-	8E-	.	.	.	.	.	.	8e-	8e-
=68	=68	=68	=68	=68	=68	=68	=68	=68	=68	=68	=68
2bb-	4d	4D	4D	2ff	2dd	4d	4B-	2dd	2g	4d	4d
.	4d	4D	4D	.	.	2.r	2.r	.	.	4ff	4ff
2gg	4e-	4E-	4E-	2ee-	2cc	.	.	2ee	2cc	4e-	4e-
.	4e-	4E-	4E-	.	.	.	.	.	.	4bb-	4bb-
=69	=69	=69	=69	=69	=69	=69	=69	=69	=69	=69	=69
2ff	4f	4F	4F	2dd	2b-	1r	1r	1dd	1dd	2f	4b- 4d
.	4f	4F	4F	.	.	.	.	.	.	.	4b- 4d
2a	4F	4FF	4FF	2cc	2a	.	.	.	.	2cc	4a 4e-
.	4F	4FF	4FF	.	.	.	.	.	.	.	4e- 4a
=70	=70	=70	=70	=70	=70	=70	=70	=70	=70	=70	=70
4b-	4B-	4BB-	4BB-	4b-	4b-	1BB-	1BB-	1g	1G	4b-	4d 4b-
2bb-	2f	4BB-	4BB-	2dd	2f	.	.	.	.	4.bb-	2b- 2d
.	.	4BB-	4BB-	.	.	.	.	.	.	.	.
.	.	.	.	.	.	.	.	.	.	8ff	.
4bb-	4f	4BB-	4BB-	4dd	4f	.	.	.	.	8dd	4b- 4d
.	.	.	.	.	.	.	.	.	.	8b-	.
=71	=71	=71	=71	=71	=71	=71	=71	=71	=71	=71	=71
4r	4cc	4BB-	4BB-	4r	4r	1BB-	1BB-	1g	1G	4a	4a 4e-
2gg	2cc	4BB-	4BB-	2ee-	2a	.	.	.	.	4.gg	2e- 2a
.	.	4BB-	4BB-	.	.	.	.	.	.	.	.
.	.	.	.	.	.	.	.	.	.	8ee-	.
4gg	4cc	4BB-	4BB-	4ee-	4a	.	.	.	.	8cc	4e- 4a
.	.	.	.	.	.	.	.	.	.	8a	.
=72	=72	=72	=72	=72	=72	=72	=72	=72	=72	=72	=72
4r	4b-	4BB-	4BB-	4r	4r	1BB-	1BB-	1g	1G	4b-	4b- 4d
2bb-	2f	4BB-	4BB-	2dd	2f	.	.	.	.	4.dd	2d 2B-
.	.	4BB-	4BB-	.	.	.	.	.	.	.	.
.	.	.	.	.	.	.	.	.	.	8b-	.
4bb-	4f	4BB-	4BB-	4dd	4f	.	.	.	.	8f	4B- 4d
.	.	.	.	.	.	.	.	.	.	8d	.
=73	=73	=73	=73	=73	=73	=73	=73	=73	=73	=73	=73
4r	4e-	4BB-	4BB-	4r	4r	1BB-	1BB-	1g	1G	4e-	4e- 4A
2ccc	2c	4BB-	4BB-	2aa	2ee-	.	.	.	.	4.g	2A 2e-
.	.	4BB-	4BB-	.	.	.	.	.	.	.	.
.	.	.	.	.	.	.	.	.	.	8e-	.
4ccc	4c	4BB-	4BB-	4aa	4ee-	.	.	.	.	8c	4e- 4A
.	.	.	.	.	.	.	.	.	.	8A	.
=74	=74	=74	=74	=74	=74	=74	=74	=74	=74	=74	=74
2bb-	2B-	2BB-	2BB-	2bb-	2dd	2BB-	2BB-	2g	2G	2B-	2B- 2d
4ff	4f	4F	4F	4ff	4ff	4F	4F	2r	2r	4f	4f
4dd	4d	4D	4D	4dd	4dd	4D	4D	.	.	4d	4d
=75	=75	=75	=75	=75	=75	=75	=75	=75	=75	=75	=75
2b-	2B-	2BB-	2BB-	2b-	2b-	2BB-	2BB-	2g	2G	2B-	2B-
4gg	4g	4G	4G	4gg	4gg	4G	4G	2r	2r	4g	4g
4ee-	4e-	4E-	4E-	4ee-	4ee-	4E-	4E-	.	.	4e-	4e-
=76	=76	=76	=76	=76	=76	=76	=76	=76	=76	=76	=76
4b-	4B-	4BB-	4BB-	4b-	4b-	4BB-	4BB-	2g	2G	4B-	4B-
4aa-	4a-	4A-	4A-	4aa-	4aa-	4A-	4A-	.	.	4a-	4a-
4ff	4f	4F	4F	4ff	4ff	4F	4F	2r	2r	4f	4f
4dd	4d	4D	4D	4dd	4dd	4D	4D	.	.	4d	4d
=77	=77	=77	=77	=77	=77	=77	=77	=77	=77	=77	=77
4b-	4B-	4BB-	4BB-	4b-	4b-	4BB-	4BB-	4g	4G	2B-	2B-
2.r	2.r	2.r	2.r	2.r	2.r	2.r	2.r	2.r	2.r	.	.
.	.	.	.	.	.	.	.	.	.	4a-	4a-
.	.	.	.	.	.	.	.	.	.	4f	4f
=78	=78	=78	=78	=78	=78	=78	=78	=78	=78	=78	=78
1r	1r	1r	1r	2.r	2.r	1r	1r	1r	1r	4d	4d
.	.	.	.	.	.	.	.	.	.	4cc	4cc
.	.	.	.	.	.	.	.	.	.	4b-	4b-
.	.	.	.	4cc	4a	.	.	.	.	4r	4r
=79	=79	=79	=79	=79	=79	=79	=79	=79	=79	=79	=79
1r	1r	1r	1r	4dd	4b-	1r	1r	1r	1r	1r	1r
.	.	.	.	4ee-	4cc	.	.	.	.	.	.
.	.	.	.	4ff	4dd	.	.	.	.	.	.
.	.	.	.	4gg	4ee-	.	.	.	.	.	.
=80	=80	=80	=80	=80	=80	=80	=80	=80	=80	=80	=80
1r	1r	1r	1r	[1aa-	[1ff	1r	1r	[1dd	[1g	2B-	2B-
.	.	.	.	.	.	.	.	.	.	4a-	4a-
.	.	.	.	.	.	.	.	.	.	4f	4f
=81	=81	=81	=81	=81	=81	=81	=81	=81	=81	=81	=81
1r	1r	1r	1r	2.aa-]	2.ff]	1r	1r	1dd_	1g_	4d	4d
.	.	.	.	.	.	.	.	.	.	4cc	4cc
.	.	.	.	.	.	.	.	.	.	4b-	4b-
.	.	.	.	4gg	4ee	.	.	.	.	4r	4r
=82	=82	=82	=82	=82	=82	=82	=82	=82	=82	=82	=82
1r	1r	1r	1r	4aa-	4ff	1r	1r	2dd]	2g]	1r	1r
.	.	.	.	4ccc	4aa-	.	.	.	.	.	.
.	.	.	.	4aa-	4ff	.	.	4dd	4g	.	.
.	.	.	.	4aa-	4ee-	.	.	4dd	4g	.	.
=83	=83	=83	=83	=83	=83	=83	=83	=83	=83	=83	=83
1r	1r	1r	1r	4aa-	4dd	1r	1r	4dd	4g	1r	1r
.	.	.	.	2r	2r	.	.	2.r	2.r	.	.
.	.	.	.	4gg	4ee-	.	.	.	.	.	.
=84	=84	=84	=84	=84	=84	=84	=84	=84	=84	=84	=84
1r	1r	1r	1r	4aa-	4dd	1r	1r	4dd	4g	1r	1r
.	.	.	.	2.r	2.r	.	.	2.r	2.r	.	.
=85	=85	=85	=85	=85	=85	=85	=85	=85	=85	=85	=85
1r	[1B-	[1d-	[1d-	1r	1r	1r	1r	[1cc	[1c	2e-	[1G 1e-
.	.	.	.	.	.	.	.	.	.	4dd-	.
.	.	.	.	.	.	.	.	.	.	4b-	.
=86	=86	=86	=86	=86	=86	=86	=86	=86	=86	=86	=86
1r	1B-]	1d-]	1d-]	2.r	2.r	2E-	1r	1cc_	1c_	4g	1G 1e-]
.	.	.	.	.	.	.	.	.	.	4ff	.
.	.	.	.	.	.	4d-	.	.	.	4ee-	.
.	.	.	.	4gg	4b-	4B-	.	.	.	4r	.
=87	=87	=87	=87	=87	=87	=87	=87	=87	=87	=87	=87
1r	1c	1c	1c	4aa-	4cc	4A-	1r	1cc_	1c_	4a-	1e- 1A-
.	.	.	.	2r	2r	2r	.	.	.	4ff	.
.	.	.	.	.	.	.	.	.	.	4ee-	.
.	.	.	.	4aa-	4cc	4c	.	.	.	4r	.
=88	=88	=88	=88	=88	=88	=88	=88	=88	=88	=88	=88
2r	1B-	1G	1G	4bb-	4dd-	4G	1r	1cc]	1c]	4b-	1e- 1B-
.	.	.	.	2r	2r	2r	.	.	.	4ff	.
[2ee-	.	.	.	.	.	.	.	.	.	4ee-	.
.	.	.	.	4dd-	4b-	4G	.	.	.	4dd-	.
=89	=89	=89	=89	=89	=89	=89	=89	=89	=89	=89	=89
4ee-]	1c	2A-	2A-	4cc	4a-	4A-	1r	1r	1r	4cc	4c 4e-
4gg-	.	.	.	2.r	2.r	2.r	.	.	.	4gg-	2r
4ff	.	2A	2A	.	.	.	.	.	.	4ff	.
4ee-	.	.	.	.	.	.	.	.	.	4ee-	4g-
=90	=90	=90	=90	=90	=90	=90	=90	=90	=90	=90	=90
4dd	1d	2B-	2B-	1r	1r	1r	1r	1r	1r	4dd	4f
4aa-	.	.	.	.	.	.	.	.	.	4aa-	2r
4gg	.	2B	2B	.	.	.	.	.	.	4gg	.
4ff	.	.	.	.	.	.	.	.	.	4ff	4a-
=91	=91	=91	=91	=91	=91	=91	=91	=91	=91	=91	=91
4ee	2e	2c	2c	4r	4r	1r	1r	1r	1r	4ee	4g
4ddd-	.	.	.	4bb-	4ee	.	.	.	.	4ddd-	2.r
4ccc	2r	2r	2r	4aa-	4ff	.	.	.	.	4ccc	.
4bb-	.	.	.	4gg	4gg	.	.	.	.	4bb-	.
=92	=92	=92	=92	=92	=92	=92	=92	=92	=92	=92	=92
4aa	2F	2F	2F	1ee-	1cc	2F	2F	[1dd	[1dd	4aa	4cc 4e-
2aa	.	.	.	.	.	.	.	.	.	2aa	2cc 2e-
.	4e-	4e-	4e-	.	.	4e-	4e-	.	.	.	.
4aa	4c	4c	4c	.	.	4c	4c	.	.	[4aa	[4cc 4e-
=93	=93	=93	=93	=93	=93	=93	=93	=93	=93	=93	=93
4aa	4A	4A	4A	4ee-	4cc	4A	4A	2dd]	2dd]	4aa]	4cc 4e-]
2aa	4g-	4g-	4g-	2ee-	2cc	4g-	4g-	.	.	2aa	2e- 2cc
.	4f	4f	4f	.	.	4f	4f	2r	2r	.	.
4bb-	4r	4r	4r	4dd-	4b-	4r	4r	.	.	4bb-	4dd-
=94	=94	=94	=94	=94	=94	=94	=94	=94	=94	=94	=94
4aa	4r	4r	4r	4ee-	4cc	4r	4r	2dd	2dd	4aa	4cc 4e-
2aa	4g-	4g-	4g-	2ee-	2cc	4g-	4g-	.	.	2aa	2e- 2cc
.	4f	4f	4f	.	.	4f	4f	2r	2r	.	.
4bb-	4r	4r	4r	4dd-	4b-	4r	4r	.	.	4bb-	4dd-
=95	=95	=95	=95	=95	=95	=95	=95	=95	=95	=95	=95
4aa	4r	4r	4r	4ee-	4cc	4r	4r	2dd	2dd	4aa	4cc 4e-
2aa	4g-	4g-	4g-	2ee-	2cc	4g-	4g-	.	.	2aa	2e- 2cc
.	4f	4f	4f	.	.	4f	4f	2r	2r	.	.
4ccc	4e-	4e-	4e-	4cc	4a	4e-	4e-	.	.	4ccc	4a
=96	=96	=96	=96	=96	=96	=96	=96	=96	=96	=96	=96
4bb-	4d-	4d-	4d-	4dd-	4b-	4d-	4d-	2g	2g	4bb-	4ff
4ccc	4c	4c	4c	4ee-	4cc	4c	4c	.	.	4ccc	4ee-
4ddd-	4B-	4B-	4B-	4ff	4dd-	4B-	4B-	2r	2r	4ddd-	4dd-
4ff	4B	4B	4B	4ff	4dd	4B	4B	.	.	4ff	4ff
=97	=97	=97	=97	=97	=97	=97	=97	=97	=97	=97	=97
4ee-	2C	2C	2C	4bb-	4ee-	2C	2C	1r	1r	4ee-	4b- 4g
2ee-	.	.	.	2bb-	2gg	.	.	.	.	2ee-	2g 2b-
.	4B-	4B-	4B-	.	.	4B-	4B-	.	.	.	.
4ee-	4G	4G	4G	[4bb-	[4gg	4G	4G	.	.	4ee-	[4g 4b-
=98	=98	=98	=98	=98	=98	=98	=98	=98	=98	=98	=98
4ee	4E	4E	4E	4bb-]	4gg]	4E	4E	1r	1r	4ee	4g 4b-]
2ee	4d-	4d-	4d-	2bb-	2gg	4d-	4d-	.	.	2ee	2g 2b-
.	4c	4c	4c	.	.	4c	4c	.	.	.	.
4ff	4r	4r	4r	4aa-	4ff	4r	4r	.	.	4ff	4a-
=99	=99	=99	=99	=99	=99	=99	=99	=99	=99	=99	=99
4ee	4r	4r	4r	4bb-	4gg	4r	4r	1r	1r	4ee	4b- 4g
2ee	4d-	4d-	4d-	2bb-	2gg	4d-	4d-	.	.	2ee	2g 2b-
.	4c	4c	4c	.	.	4c	4c	.	.	.	.
4ff#	4r	4r	4r	4aa	4ff#	4r	4r	.	.	4ff#	4a
=100	=100	=100	=100	=100	=100	=100	=100	=100	=100	=100	=100
4gg	4r	4r	4r	4bb-	4gg	4r	4r	1r	1r	4gg	4b-
2gg	4d-	4d-	4d-	2bb-	2gg	4d-	4d-	.	.	2gg	2b-
.	4c	4c	4c	.	.	4c	4c	.	.	.	.
4ff	4r	4r	4r	4aa-	4ff	4r	4r	.	.	4ff	4a-
=101	=101	=101	=101	=101	=101	=101	=101	=101	=101	=101	=101
4ee	4r	4r	4r	4gg	4ee	4r	4r	1r	1r	4ee	4g 4b-
2ee	4d-	4d-	4d-	2gg	2ee	4d-	4d-	.	.	2ee	2b- 2g
.	4c	4c	4c	.	.	4c	4c	.	.	.	.
4gg	4B-	4B-	4B-	4gg	4gg	4B-	4B-	.	.	4gg	4e
=102	=102	=102	=102	=102	=102	=102	=102	=102	=102	=102	=102
4ff	4A-	4A-	4A-	4ff	4dd	4A-	4A-	1r	1r	4ff	4cc
4gg	4G	4G	4G	4gg	4b-	4G	4G	.	.	4gg	4b-
4aa-	4F	4F	4F	4aa-	4a-	4F	4F	.	.	4aa-	4a-
4cc	4A-	4A-	4A-	4ff#	4cc	4A-	4A-	.	.	4cc	4f#
=103	=103	=103	=103	=103	=103	=103	=103	=103	=103	=103	=103
4b	4G	2G	2G	4gg	4b	2G	2G	4ee	4e	4b	4g
4aa-	2G	.	.	2r	2r	.	.	2ee	2e	4aa-	2r
4gg	.	4r	4r	.	.	4r	4r	.	.	4gg	.
4r	[4G	4F	4F	4b	4dd	4F	4F	[4ee	[4e	4r	4b 4d
=104	=104	=104	=104	=104	=104	=104	=104	=104	=104	=104	=104
4cc	4G]	4E-	4E-	4cc	4cc	4E-	4E-	4ee]	4e]	4cc	4e- 4cc
4aa-	2G	2r	2r	2r	2r	2r	2r	2ee	2e	4aa-	2r
4gg	.	.	.	.	.	.	.	.	.	4gg	.
4r	[4G	4E-	4E-	4cc	4cc	4E-	4E-	[4ee	[4e	4r	4cc 4g
=105	=105	=105	=105	=105	=105	=105	=105	=105	=105	=105	=105
4dd	4G]	4BB	4BB	4dd	4g	4BB	4BB	4ee]	4e]	4dd	4dd 4g
4aa-	2G	2r	2r	2r	2r	2r	2r	2ee	2e	4aa-	2r
4gg	.	.	.	.	.	.	.	.	.	4gg	.
4r	[4G	4BB	4BB	4dd	4ff	4BB	4BB	[4ee	[4e	4r	4dd 4g
=106	=106	=106	=106	=106	=106	=106	=106	=106	=106	=106	=106
4ee-	4G]	4C	4C	4ee-	4ee-	4C	4C	4ee]	4e]	4ee-	4ee- 4g
4aa-	2r	2r	2.r	2.r	2.r	2.r	2.r	2.r	2.r	4aa-	2r
4gg	.	.	.	.	.	.	.	.	.	4gg	.
4ccc	4cc	4e-	.	.	.	.	.	.	.	4r	[4g
=107	=107	=107	=107	=107	=107	=107	=107	=107	=107	=107	=107
4bb	4b	4f	1r	1r	1r	1r	1r	1r	1r	4b	4g]
2r	2r	2r	.	.	.	.	.	.	.	4aa-	2r
.	.	.	.	.	.	.	.	.	.	4gg	.
4ddd	[4g	4f	.	.	.	.	.	.	.	4r	4b
=108	=108	=108	=108	=108	=108	=108	=108	=108	=108	=108	=108
4ccc	4g]	4e-	1r	1r	1r	1r	1r	1r	1r	4cc	4cc
2r	2r	2r	.	.	.	.	.	.	.	4aa-	2r
.	.	.	.	.	.	.	.	.	.	4gg	.
4ccc	[4g	4e-	.	.	.	.	.	.	.	4r	4cc
=109	=109	=109	=109	=109	=109	=109	=109	=109	=109	=109	=109
4ddd	4g]	4B	1r	1r	1r	1r	1r	1r	1r	4dd	4dd
2r	2r	2r	.	.	.	.	.	.	.	4aa-	2r
.	.	.	.	.	.	.	.	.	.	4gg	.
4ddd	[4g	4B	.	.	.	.	.	.	.	4r	4dd
=110	=110	=110	=110	=110	=110	=110	=110	=110	=110	=110	=110
4eee-	4g]	4c	1r	1r	1r	1r	1r	1r	1r	4ee-	4ee-
2.r	2.r	2.r	.	.	.	.	.	.	.	4aa-	2.r
.	.	.	.	.	.	.	.	.	.	4gg	.
.	.	.	.	.	.	.	.	.	.	4aa-	.
=111	=111	=111	=111	=111	=111	=111	=111	=111	=111	=111	=111
1r	1r	1r	1r	1r	1r	1r	1r	1r	1r	4gg	1r
.	.	.	.	.	.	.	.	.	.	4aa-	.
.	.	.	.	.	.	.	.	.	.	4gg	.
.	.	.	.	.	.	.	.	.	.	4aa-	.
=112	=112	=112	=112	=112	=112	=112	=112	=112	=112	=112	=112
[1cc	[1A-	[1AA-	[1AA-	[1gg-	[1ee-	1r	1r	1r	1r	4gg-	[1e- 1c
.	.	.	.	.	.	.	.	.	.	4aa-	.
.	.	.	.	.	.	.	.	.	.	4gg-	.
.	.	.	.	.	.	.	.	.	.	4aa-	.
=113	=113	=113	=113	=113	=113	=113	=113	=113	=113	=113	=113
1cc]	1A-_	1AA-_	1AA-_	1gg-]	1ee-]	1r	1r	1r	1r	4gg-	1e- 1c]
.	.	.	.	.	.	.	.	.	.	4aa-	.
.	.	.	.	.	.	.	.	.	.	4ee-	.
.	.	.	.	.	.	.	.	.	.	4aa-	.
=114	=114	=114	=114	=114	=114	=114	=114	=114	=114	=114	=114
1dd-	1A-]	1AA-]	1AA-]	1ff	1dd-	1r	1r	1r	1r	4ff	1d- 1f
.	.	.	.	.	.	.	.	.	.	4aa-	.
.	.	.	.	.	.	.	.	.	.	4dd-	.
.	.	.	.	.	.	.	.	.	.	4ff	.
=115	=115	=115	=115	=115	=115	=115	=115	=115	=115	=115	=115
1gg-	1c	1AA	1AA	1ee-	1cc	1r	1r	1r	1r	4ee-	2g-
.	.	.	.	.	.	.	.	.	.	4gg-	.
.	.	.	.	.	.	.	.	.	.	4cc	4e-
.	.	.	.	.	.	.	.	.	.	4ee-	4c
=116	=116	=116	=116	=116	=116	=116	=116	=116	=116	=116	=116
[1ff	2d-	[1BB-	[1BB-	2dd-	2b-	1r	1r	[1dd	[1g	4dd-	[1d-
.	.	.	.	.	.	.	.	.	.	4ff	.
.	[2f	.	.	2r	2r	.	.	.	.	4b-	.
.	.	.	.	.	.	.	.	.	.	4cc	.
=117	=117	=117	=117	=117	=117	=117	=117	=117	=117	=117	=117
1ff]	2f]	1BB-]	1BB-]	1r	1r	1r	1r	1dd]	1g]	4dd-	1d-]
.	.	.	.	.	.	.	.	.	.	4ff	.
.	2f	.	.	.	.	.	.	.	.	4b-	.
.	.	.	.	.	.	.	.	.	.	4dd-	.
=118	=118	=118	=118	=118	=118	=118	=118	=118	=118	=118	=118
[1gg-	8e-	4E-	4E-	[1gg-	[1cc-	[1E-	[1E-	[1cc	[1cc	2cc-	8g-
.	8c-	.	.	.	.	.	.	.	.	.	8g-
.	8c-	4E-	4E-	.	.	.	.	.	.	.	8g-
.	8c-	.	.	.	.	.	.	.	.	.	8g-
.	8c-	4E-	4E-	.	.	.	.	.	.	4bb-	8g-
.	8c-	.	.	.	.	.	.	.	.	.	8g-
.	8c-	4E-	4E-	.	.	.	.	.	.	4ccc-	8g-
.	8c-	.	.	.	.	.	.	.	.	.	8g-
=119	=119	=119	=119	=119	=119	=119	=119	=119	=119	=119	=119
1gg-]	8c-	4E-	4E-	1gg-]	1cc-_	1E-]	1E-]	1cc]	1cc]	4ff	8g-
.	8c-	.	.	.	.	.	.	.	.	.	8g-
.	8c-	4E-	4E-	.	.	.	.	.	.	4gg-	8g-
.	8c-	.	.	.	.	.	.	.	.	.	8g-
.	8c-	4E-	4E-	.	.	.	.	.	.	4dd	8g-
.	8c-	.	.	.	.	.	.	.	.	.	8g-
.	8c-	4E-	4E-	.	.	.	.	.	.	4ee-	8g-
.	8c-	.	.	.	.	.	.	.	.	.	8g-
=120	=120	=120	=120	=120	=120	=120	=120	=120	=120	=120	=120
[1dd-	8A-	4F	4F	[1aa-	1cc-_	[1F	[1F	[1dd	[1dd	2A-	8d-
.	8A-	.	.	.	.	.	.	.	.	.	8d-
.	8A-	4F	4F	.	.	.	.	.	.	.	8d-
.	8A-	.	.	.	.	.	.	.	.	.	8d-
.	8A-	4F	4F	.	.	.	.	.	.	4bb-	8d-
.	8A-	.	.	.	.	.	.	.	.	.	8d-
.	8A-	4F	4F	.	.	.	.	.	.	4ccc-	8d-
.	8A-	.	.	.	.	.	.	.	.	.	8d-
=121	=121	=121	=121	=121	=121	=121	=121	=121	=121	=121	=121
1dd-]	8A-	4F	4F	1aa-]	1cc-]	1F]	1F]	1dd]	1dd]	4gg	8d-
.	8A-	.	.	.	.	.	.	.	.	.	8d-
.	8A-	4F	4F	.	.	.	.	.	.	4aa-	8d-
.	8A-	.	.	.	.	.	.	.	.	.	8d-
.	8A-	4F	4F	.	.	.	.	.	.	4cc	8d-
.	8A-	.	.	.	.	.	.	.	.	.	8d-
.	8A-	4F	4F	.	.	.	.	.	.	4dd-	8d-
.	8A-	.	.	.	.	.	.	.	.	.	8d-
=122	=122	=122	=122	=122	=122	=122	=122	=122	=122	=122	=122
1dd-	8B-	4G-	4G-	[1dd-	[1b-	[1G-	[1G-	[1g	[1g	2B-	8d-
.	8B-	.	.	.	.	.	.	.	.	.	8d-
.	8B-	4G-	4G-	.	.	.	.	.	.	.	8d-
.	8B-	.	.	.	.	.	.	.	.	.	8d-
.	8B-	4G-	4G-	.	.	.	.	.	.	4aa	8d-
.	8B-	.	.	.	.	.	.	.	.	.	8d-
.	8B-	4G-	4G-	.	.	.	.	.	.	4bb-	8d-
.	8B-	.	.	.	.	.	.	.	.	.	8d-
=123	=123	=123	=123	=123	=123	=123	=123	=123	=123	=123	=123
1bb-	8d-	4G-	4G-	1dd-]	1b-]	1G-_	1G-_	1g]	1g]	4ff	8b-
.	8d-	.	.	.	.	.	.	.	.	.	8b-
.	8d-	4G-	4G-	.	.	.	.	.	.	4gg-	8b-
.	8d-	.	.	.	.	.	.	.	.	.	8b-
.	8d-	4G-	4G-	.	.	.	.	.	.	4cc	8b-
.	8d-	.	.	.	.	.	.	.	.	.	8b-
.	8d-	4G-	4G-	.	.	.	.	.	.	4dd-	8b-
.	8d-	.	.	.	.	.	.	.	.	.	8b-
=124	=124	=124	=124	=124	=124	=124	=124	=124	=124	=124	=124
1ee-	4a-	4G-	4G-	1cc	1a-	1G-]	1G-]	1cc	1cc	2r	4e- 4cc
.	4a-	4G-	4G-	.	.	.	.	.	.	.	2cc 2e-
.	4a-	4G-	4G-	.	.	.	.	.	.	8bb-	.
.	.	.	.	.	.	.	.	.	.	8aa-	.
.	4a-	4G-	4G-	.	.	.	.	.	.	8bb-	4e- 4cc
.	.	.	.	.	.	.	.	.	.	8aa-	.
=125	=125	=125	=125	=125	=125	=125	=125	=125	=125	=125	=125
1aa-	4a-	4F	4F	[1dd-	1a-	1F	1F	1dd	1dd	2r	4dd- 4f
.	4a-	4F	4F	.	.	.	.	.	.	.	2dd- 2f
.	4a-	4F	4F	.	.	.	.	.	.	8bb-	.
.	.	.	.	.	.	.	.	.	.	8aa-	.
.	4a-	4F	4F	.	.	.	.	.	.	8bb-	4dd- 4f
.	.	.	.	.	.	.	.	.	.	8aa-	.
=126	=126	=126	=126	=126	=126	=126	=126	=126	=126	=126	=126
[1gg	4b-	4E-	4E-	1dd-_	[1b-	[1E-	[1E-	[1ee	[1g	2r	4dd- 4g
.	4b-	4E-	4E-	.	.	.	.	.	.	.	2dd- 2g
.	4b-	4E-	4E-	.	.	.	.	.	.	8ddd-	.
.	.	.	.	.	.	.	.	.	.	8ccc	.
.	4b-	4E-	4E-	.	.	.	.	.	.	8ddd-	[4dd- 4g
.	.	.	.	.	.	.	.	.	.	8ccc	.
=127	=127	=127	=127	=127	=127	=127	=127	=127	=127	=127	=127
1gg]	4b-	4E-	4E-	1dd-]	1b-]	1E-_	1E-_	1ee]	1g]	8ddd-	4dd- 4g]
.	.	.	.	.	.	.	.	.	.	8ccc	.
.	4b-	4E-	4E-	.	.	.	.	.	.	8bb-	2dd- 2g
.	.	.	.	.	.	.	.	.	.	8aa-	.
.	4b-	4E-	4E-	.	.	.	.	.	.	8gg	.
.	.	.	.	.	.	.	.	.	.	8ff	.
.	4b-	4E-	4E-	.	.	.	.	.	.	8ee-	4dd- 4g
.	.	.	.	.	.	.	.	.	.	8dd-	.
=128	=128	=128	=128	=128	=128	=128	=128	=128	=128	=128	=128
[1aa-	4e-	4E-	4E-	1cc	1a-	1E-_	1E-_	[1cc	[1cc	2cc	4cc 4a-
.	4e-	4E-	4E-	.	.	.	.	.	.	.	2cc 2a-
.	4e-	4E-	4E-	.	.	.	.	.	.	8ccc	.
.	.	.	.	.	.	.	.	.	.	8bb	.
.	4e-	4E-	4E-	.	.	.	.	.	.	8ccc	[4cc 4a-
.	.	.	.	.	.	.	.	.	.	8bb	.
=129	=129	=129	=129	=129	=129	=129	=129	=129	=129	=129	=129
1aa-]	4e-	4E-	4E-	1ccc	1aa-	1E-]	1E-]	1cc]	1cc]	8ccc	4cc 4a-]
.	.	.	.	.	.	.	.	.	.	8bb-	.
.	4e-	4E-	4E-	.	.	.	.	.	.	8aa-	2cc 2a-
.	.	.	.	.	.	.	.	.	.	8gg	.
.	4e-	4E-	4E-	.	.	.	.	.	.	8ff	.
.	.	.	.	.	.	.	.	.	.	8ee-	.
.	4e-	4E-	4E-	.	.	.	.	.	.	8dd-	4a- 4cc
.	.	.	.	.	.	.	.	.	.	8cc	.
=130	=130	=130	=130	=130	=130	=130	=130	=130	=130	=130	=130
[1ccc	4c	4E	4E	[1bb-	[1gg	[1E	[1E	[1ee	[1ee	2b-	4b- 4g
.	4c	4E	4E	.	.	.	.	.	.	.	2g 2b-
.	4c	4E	4E	.	.	.	.	.	.	8bb-	.
.	.	.	.	.	.	.	.	.	.	8aa	.
.	4c	4E	4E	.	.	.	.	.	.	8bb-	[4g 4b-
.	.	.	.	.	.	.	.	.	.	8aa	.
=131	=131	=131	=131	=131	=131	=131	=131	=131	=131	=131	=131
1ccc_	4c	4E	4E	1bb-]	1gg]	1E]	1E]	1ee]	1ee]	8bb-	4g 4b-]
.	.	.	.	.	.	.	.	.	.	8aa-	.
.	4c	4E	4E	.	.	.	.	.	.	8gg	2b- 2g
.	.	.	.	.	.	.	.	.	.	8ff	.
.	4c	4E	4E	.	.	.	.	.	.	8ee	.
.	.	.	.	.	.	.	.	.	.	8dd-	.
.	4c	4E	4E	.	.	.	.	.	.	8cc	4b- 4g
.	.	.	.	.	.	.	.	.	.	8b-	.
=132	=132	=132	=132	=132	=132	=132	=132	=132	=132	=132	=132
1ccc]	4c	4F	4F	[1aa-	[1ff	1F	1F	[1dd	1dd	2a-	4a- 4c
.	4c	4F	4F	.	.	.	.	.	.	.	2a- 2c
.	4c	4F	4F	.	.	.	.	.	.	8aa-	.
.	.	.	.	.	.	.	.	.	.	8gg	.
.	4c	4F	4F	.	.	.	.	.	.	8aa-	4a- 4c
.	.	.	.	.	.	.	.	.	.	8gg	.
=133	=133	=133	=133	=133	=133	=133	=133	=133	=133	=133	=133
[1bb-	4f	4D	4D	1aa-]	1ff]	1D	1D	1dd]	1g	8aa-	4B- 4a-
.	.	.	.	.	.	.	.	.	.	8gg	.
.	4f	4D	4D	.	.	.	.	.	.	8ff	2a- 2B-
.	.	.	.	.	.	.	.	.	.	8ee-	.
.	4f	4D	4D	.	.	.	.	.	.	8dd	.
.	.	.	.	.	.	.	.	.	.	8cc	.
.	4f	4D	4D	.	.	.	.	.	.	8b-	4a- 4B-
.	.	.	.	.	.	.	.	.	.	8a-	.
=134	=134	=134	=134	=134	=134	=134	=134	=134	=134	=134	=134
1bb-]	4e-	4E-	4E-	1gg	1ee-	1E-	1E-	1ee	1cc	2g	4g 4B-
.	4e-	4E-	4E-	.	.	.	.	.	.	.	2B- 2g
.	4e-	4E-	4E-	.	.	.	.	.	.	8ee-	.
.	.	.	.	.	.	.	.	.	.	8ff	.
.	4e-	4E-	4E-	.	.	.	.	.	.	8gg	4B- 4g
.	.	.	.	.	.	.	.	.	.	8ff	.
=135	=135	=135	=135	=135	=135	=135	=135	=135	=135	=135	=135
1aa	4c	4C	4C	2ee-	1a	1C	1C	1cc	1cc	8ee-	4a 4e-
.	.	.	.	.	.	.	.	.	.	8dd	.
.	4c	4C	4C	.	.	.	.	.	.	8cc	2a 2e-
.	.	.	.	.	.	.	.	.	.	8b-	.
.	4c	4C	4C	2a	.	.	.	.	.	8a	.
.	.	.	.	.	.	.	.	.	.	8g	.
.	4c	4C	4C	.	.	.	.	.	.	8f	4a 4e-
.	.	.	.	.	.	.	.	.	.	8e-	.
=136	=136	=136	=136	=136	=136	=136	=136	=136	=136	=136	=136
2bb-	4B-	4BB-	4BB-	2.b-	2.b-	2BB-	2BB-	2dd	2g	4d	4d 4b-
.	2.r	4B-	4B-	.	.	.	.	.	.	2.r	2.r
2r	.	4BB-	4BB-	.	.	2r	2r	2r	2r	.	.
.	.	4r	4r	4cc	4a	.	.	.	.	.	.
=137	=137	=137	=137	=137	=137	=137	=137	=137	=137	=137	=137
1r	1r	1r	1r	4dd	4b-	1r	1r	1r	1r	1r	1r
.	.	.	.	4ee-	4cc	.	.	.	.	.	.
.	.	.	.	4ff	4dd	.	.	.	.	.	.
.	.	.	.	4gg	4ee-	.	.	.	.	.	.
=138	=138	=138	=138	=138	=138	=138	=138	=138	=138	=138	=138
1r	1r	1r	1r	[1aa-	[1ff	1r	1r	[1dd	[1g	2B-	2B-
.	.	.	.	.	.	.	.	.	.	4a-	4a-
.	.	.	.	.	.	.	.	.	.	4f	4f
=139	=139	=139	=139	=139	=139	=139	=139	=139	=139	=139	=139
1r	1r	1r	1r	2.aa-]	2.ff]	1r	1r	1dd_	1g_	4d	4d
.	.	.	.	.	.	.	.	.	.	4cc	4cc
.	.	.	.	.	.	.	.	.	.	4b-	4b-
.	.	.	.	4gg	4ee	.	.	.	.	4r	4r
=140	=140	=140	=140	=140	=140	=140	=140	=140	=140	=140	=140
1r	1r	1r	1r	4aa-	4ff	1r	1r	1dd_	1g_	1r	1r
.	.	.	.	4gg	4ee	.	.	.	.	.	.
.	.	.	.	4aa-	4ff	.	.	.	.	.	.
.	.	.	.	4gg	4ee	.	.	.	.	.	.
=141	=141	=141	=141	=141	=141	=141	=141	=141	=141	=141	=141
2aa-	2B-	2BB-	2BB-	4aa-	4ff	2BB-	2BB-	2dd]	2g]	2aa- 2b- 2d	2aa- 2b- 2d
.	.	.	.	2.r	2.r	.	.	.	.	.	.
2r	4a-	4A-	4A-	.	.	4A-	4A-	2r	2r	2r	2r
.	4f	4F	4F	.	.	4F	4F	.	.	.	.
=142	=142	=142	=142	=142	=142	=142	=142	=142	=142	=142	=142
2aa-	2d	2D	2D	2aa-	2ff	2D	2D	2dd	2g	2aa- 2b- 2d	2aa- 2b- 2d
2r	2cc-	2c-	2c-	2r	2r	2c-	2c-	2r	2r	2r	2r
=143	=143	=143	=143	=143	=143	=143	=143	=143	=143	=143	=143
2aa-	2b-	2B-	2B-	2aa-	2ff	2B-	2B-	2dd	2g	2aa- 2d 2b-	2aa- 2b- 2d
2r	2r	2r	2r	2r	2r	2r	2r	2r	2r	2r	2r
=144	=144	=144	=144	=144	=144	=144	=144	=144	=144	=144	=144
1r	1r	1r	1r	1r	1r	1r	1r	1r	1r	1r	1r
=145	=145	=145	=145	=145	=145	=145	=145	=145	=145	=145	=145
1r	2e-	1r	1r	1r	1r	1r	1r	1r	1r	2b-	8e-
.	.	.	.	.	.	.	.	.	.	.	8b-
.	.	.	.	.	.	.	.	.	.	.	8g
.	.	.	.	.	.	.	.	.	.	.	8b-
.	2r	.	.	.	.	.	.	.	.	4gg	8e-
.	.	.	.	.	.	.	.	.	.	.	8b-
.	.	.	.	.	.	.	.	.	.	4ee-	8g
.	.	.	.	.	.	.	.	.	.	.	8b-
=146	=146	=146	=146	=146	=146	=146	=146	=146	=146	=146	=146
1r	4B-	1r	1r	1r	1r	1r	1r	1r	1r	4dd	8f
.	.	.	.	.	.	.	.	.	.	.	8b-
.	4r	.	.	.	.	.	.	.	.	4ccc	8a-
.	.	.	.	.	.	.	.	.	.	.	8b-
.	4e-	.	.	.	.	.	.	.	.	4bb-	8g
.	.	.	.	.	.	.	.	.	.	.	8b-
.	4r	.	.	.	.	.	.	.	.	4r	8e-
.	.	.	.	.	.	.	.	.	.	.	8g
=147	=147	=147	=147	=147	=147	=147	=147	=147	=147	=147	=147
1r	2A-	1r	1r	1r	1r	1r	1r	1r	1r	4aa-	8A-
.	.	.	.	.	.	.	.	.	.	.	8f
.	.	.	.	.	.	.	.	.	.	4r	8c
.	.	.	.	.	.	.	.	.	.	.	8f
.	2r	.	.	.	.	.	.	.	.	4ff	8A-
.	.	.	.	.	.	.	.	.	.	.	8f
.	.	.	.	.	.	.	.	.	.	4r	8c
.	.	.	.	.	.	.	.	.	.	.	8f
=148	=148	=148	=148	=148	=148	=148	=148	=148	=148	=148	=148
1r	2B-	1r	1r	1r	1r	1r	1r	1r	1r	8ee-	4B-
.	.	.	.	.	.	.	.	.	.	8dd	.
.	.	.	.	.	.	.	.	.	.	8cc	2.r
.	.	.	.	.	.	.	.	.	.	8b-	.
.	2r	.	.	.	.	.	.	.	.	8a	.
.	.	.	.	.	.	.	.	.	.	8b-	.
.	.	.	.	.	.	.	.	.	.	8cc	.
.	.	.	.	.	.	.	.	.	.	8b-	.
=149	=149	=149	=149	=149	=149	=149	=149	=149	=149	=149	=149
1r	2e-	1r	1r	1r	1r	1r	1r	1r	1r	2b-	8e-
.	.	.	.	.	.	.	.	.	.	.	8b-
.	.	.	.	.	.	.	.	.	.	.	8g
.	.	.	.	.	.	.	.	.	.	.	8b-
.	2r	.	.	.	.	.	.	.	.	4gg	8e-
.	.	.	.	.	.	.	.	.	.	.	8b-
.	.	.	.	.	.	.	.	.	.	4ee-	8g
.	.	.	.	.	.	.	.	.	.	.	8b-
=150	=150	=150	=150	=150	=150	=150	=150	=150	=150	=150	=150
1r	4B-	1r	1r	1r	1r	1r	1r	1r	1r	4dd	8f
.	.	.	.	.	.	.	.	.	.	.	8b-
.	4r	.	.	.	.	.	.	.	.	4ccc	8a-
.	.	.	.	.	.	.	.	.	.	.	8b-
.	4e-	.	.	.	.	.	.	.	.	4bb-	8g
.	.	.	.	.	.	.	.	.	.	.	8b-
.	4r	.	.	.	.	.	.	.	.	4r	8e-
.	.	.	.	.	.	.	.	.	.	.	8g
=151	=151	=151	=151	=151	=151	=151	=151	=151	=151	=151	=151
1r	4A-	1r	1r	1r	1r	1r	1r	1r	1r	4aa-	8A-
.	.	.	.	.	.	.	.	.	.	.	8f
.	4r	.	.	.	.	.	.	.	.	4r	8c
.	.	.	.	.	.	.	.	.	.	.	8f
.	4B-	.	.	.	.	.	.	.	.	4dd	8B-
.	.	.	.	.	.	.	.	.	.	.	8f
.	4r	.	.	.	.	.	.	.	.	4r	8d
.	.	.	.	.	.	.	.	.	.	.	8B-
=152	=152	=152	=152	=152	=152	=152	=152	=152	=152	=152	=152
4r	4E-	1r	1r	4r	4r	4r	4r	4r	4r	4ee-	4G 4e-
4bb-	2.r	.	.	4bb-	4gg	4B-	4G	4gg	4ee	2.r	2.r
4aa-	.	.	.	4aa-	4ff	4A-	4F	4ff	4dd	.	.
4ddd	.	.	.	4ff	4dd	4F	4BB-	4dd	4g	.	.
=153	=153	=153	=153	=153	=153	=153	=153	=153	=153	=153	=153
4eee-	1r	8E-	2E-	4ee-	4ee-	4E-	4EE-	4cc	4e	2B-	2B-
.	.	8B-	.	.	.	.	.	.	.	.	.
2.r	.	8G	.	2.r	2.r	2.r	2.r	2.r	2.r	.	.
.	.	8B-	.	.	.	.	.	.	.	.	.
.	.	8E-	2r	.	.	.	.	.	.	4g	4g
.	.	8B-	.	.	.	.	.	.	.	.	.
.	.	8G	.	.	.	.	.	.	.	4e-	4e-
.	.	8B-	.	.	.	.	.	.	.	.	.
=154	=154	=154	=154	=154	=154	=154	=154	=154	=154	=154	=154
1r	1r	8F	4BB-	1r	1r	1r	1r	1r	1r	4d	4d
.	.	8B-	.	.	.	.	.	.	.	.	.
.	.	8A-	4r	.	.	.	.	.	.	4cc	4cc
.	.	8B-	.	.	.	.	.	.	.	.	.
.	.	8G	4E-	.	.	.	.	.	.	4b-	4b-
.	.	8B-	.	.	.	.	.	.	.	.	.
.	.	8E-	4r	.	.	.	.	.	.	4r	4r
.	.	8G	.	.	.	.	.	.	.	.	.
=155	=155	=155	=155	=155	=155	=155	=155	=155	=155	=155	=155
1r	1r	8AA-	4AA-	1r	1r	1r	1r	1r	1r	4a-	4a-
.	.	8F	.	.	.	.	.	.	.	.	.
.	.	8C	4r	.	.	.	.	.	.	4r	4r
.	.	8F	.	.	.	.	.	.	.	.	.
.	.	8AA-	4AA-	.	.	.	.	.	.	4f	4f
.	.	8F	.	.	.	.	.	.	.	.	.
.	.	8C	4r	.	.	.	.	.	.	4r	4r
.	.	8F	.	.	.	.	.	.	.	.	.
=156	=156	=156	=156	=156	=156	=156	=156	=156	=156	=156	=156
1r	1r	4BB-	4BB-	1r	1r	1r	1r	1r	1r	8e-	8e-
.	.	.	.	.	.	.	.	.	.	8d	8d
.	.	2.r	2.r	.	.	.	.	.	.	8c	8c
.	.	.	.	.	.	.	.	.	.	8B-	8B-
.	.	.	.	.	.	.	.	.	.	8A	8A
.	.	.	.	.	.	.	.	.	.	8B-	8B-
.	.	.	.	.	.	.	.	.	.	8c	8c
.	.	.	.	.	.	.	.	.	.	8B-	8B-
=157	=157	=157	=157	=157	=157	=157	=157	=157	=157	=157	=157
1r	1r	8E-	4E-	1r	1r	1r	1r	1r	1r	2B-	2B-
.	.	8B-	.	.	.	.	.	.	.	.	.
.	.	8G	2.r	.	.	.	.	.	.	.	.
.	.	8B-	.	.	.	.	.	.	.	.	.
.	.	8E-	.	.	.	.	.	.	.	4g	4g
.	.	8B-	.	.	.	.	.	.	.	.	.
.	.	8G	.	.	.	.	.	.	.	4e-	4e-
.	.	8B-	.	.	.	.	.	.	.	.	.
=158	=158	=158	=158	=158	=158	=158	=158	=158	=158	=158	=158
1r	1r	8F	4BB-	1r	1r	1r	1r	1r	1r	4d	4d
.	.	8B-	.	.	.	.	.	.	.	.	.
.	.	8A-	4r	.	.	.	.	.	.	4cc	4cc
.	.	8B-	.	.	.	.	.	.	.	.	.
.	.	8G	4E-	.	.	.	.	.	.	4b-	4b-
.	.	8B-	.	.	.	.	.	.	.	.	.
.	.	8E-	4r	.	.	.	.	.	.	4r	4r
.	.	8G	.	.	.	.	.	.	.	.	.
=159	=159	=159	=159	=159	=159	=159	=159	=159	=159	=159	=159
1r	1r	8AA-	4AA-	1r	1r	1r	1r	1r	1r	4a-	4a-
.	.	8F	.	.	.	.	.	.	.	.	.
.	.	8C	4r	.	.	.	.	.	.	4r	4r
.	.	8F	.	.	.	.	.	.	.	.	.
.	.	8BB-	4BB-	.	.	.	.	.	.	4f	4f
.	.	8F	.	.	.	.	.	.	.	.	.
.	.	8D	4r	.	.	.	.	.	.	4r	4r
.	.	8BB-	.	.	.	.	.	.	.	.	.
=160	=160	=160	=160	=160	=160	=160	=160	=160	=160	=160	=160
[1ee-	8B-	4E-	4E-	[1ee-	[1g	[1B-	[1G	[1cc	[1e	2e- 2G	8G 8e-
.	8B-	.	.	.	.	.	.	.	.	.	8e- 8G
.	8B-	4E-	4E-	.	.	.	.	.	.	.	8e- 8G
.	8B-	.	.	.	.	.	.	.	.	.	8e- 8G
.	8B-	4E-	4E-	.	.	.	.	.	.	4a-	8e- 8G
.	8B-	.	.	.	.	.	.	.	.	.	8e- 8G
.	8B-	4E-	4E-	.	.	.	.	.	.	4g	8e- 8G
.	8B-	.	.	.	.	.	.	.	.	.	8e- 8G
=161	=161	=161	=161	=161	=161	=161	=161	=161	=161	=161	=161
1ee-]	8B-	4E-	4E-	1ee-]	1g]	1B-]	1G]	1cc]	1e]	4cc	8G 8e-
.	8B-	.	.	.	.	.	.	.	.	.	8G 8e-
.	8B-	4E-	4E-	.	.	.	.	.	.	4b-	8e- 8G
.	8B-	.	.	.	.	.	.	.	.	.	8e- 8G
.	8B-	4E-	4E-	.	.	.	.	.	.	4dd	8e- 8G
.	8B-	.	.	.	.	.	.	.	.	.	8e- 8G
.	8B-	4E-	4E-	.	.	.	.	.	.	4ee-	8e- 8G
.	8B-	.	.	.	.	.	.	.	.	.	8e- 8G
=162	=162	=162	=162	=162	=162	=162	=162	=162	=162	=162	=162
[1aa-	8f	4EE-	4EE-	[1dd	[1f	[1d	[1A-	[1dd	[1g	2A- 2a-	8d 8A-
.	8f	.	.	.	.	.	.	.	.	.	8A- 8d
.	8f	4E-	4E-	.	.	.	.	.	.	.	8A- 8d
.	8f	.	.	.	.	.	.	.	.	.	8A- 8d
.	8f	4E-	4E-	.	.	.	.	.	.	4cc	8d 8A-
.	8f	.	.	.	.	.	.	.	.	.	8d 8A-
.	8f	4E-	4E-	.	.	.	.	.	.	4b-	8A- 8d
.	8f	.	.	.	.	.	.	.	.	.	8A- 8d
=163	=163	=163	=163	=163	=163	=163	=163	=163	=163	=163	=163
1aa-]	8f	4E-	4E-	1dd]	1f]	1d]	1A-]	1dd]	1g]	4ee-	8A- 8d
.	8f	.	.	.	.	.	.	.	.	.	8A- 8d
.	8f	4E-	4E-	.	.	.	.	.	.	4dd	8A- 8d
.	8f	.	.	.	.	.	.	.	.	.	8A- 8d
.	8f	4E-	4E-	.	.	.	.	.	.	4bb-	8A- 8d
.	8f	.	.	.	.	.	.	.	.	.	8A- 8d
.	8f	4E-	4E-	.	.	.	.	.	.	4aa-	8A- 8d
.	8f	.	.	.	.	.	.	.	.	.	8d 8A-
=164	=164	=164	=164	=164	=164	=164	=164	=164	=164	=164	=164
[1gg	8g 8B-	4EE-	4EE-	[1dd-	[1b-	[1d-	[1G	[1ee	[1g	2B- 2g	8d-
.	8g 8B-	.	.	.	.	.	.	.	.	.	8d-
.	8g 8B-	4E-	4E-	.	.	.	.	.	.	.	8d-
.	8g 8B-	.	.	.	.	.	.	.	.	.	8d-
.	8g 8B-	4E-	4E-	.	.	.	.	.	.	4cc	8d-
.	8g 8B-	.	.	.	.	.	.	.	.	.	8d-
.	8g 8B-	4E-	4E-	.	.	.	.	.	.	4dd-	8d-
.	8g 8B-	.	.	.	.	.	.	.	.	.	8d-
=165	=165	=165	=165	=165	=165	=165	=165	=165	=165	=165	=165
1gg_	8g 8B-	4E-	4E-	1dd-]	1b-_	1d-]	1G]	1ee_	1g]	4aa-	8d-
.	8B- 8g	.	.	.	.	.	.	.	.	.	8d-
.	8g 8B-	4E-	4E-	.	.	.	.	.	.	4gg	8d-
.	8g 8B-	.	.	.	.	.	.	.	.	.	8d-
.	8g 8B-	4E-	4E-	.	.	.	.	.	.	4ccc	8d-
.	8g 8B-	.	.	.	.	.	.	.	.	.	8d-
.	8g 8B-	4E-	4E-	.	.	.	.	.	.	4bb-	8d-
.	8B- 8g	.	.	.	.	.	.	.	.	.	8d-
=166	=166	=166	=166	=166	=166	=166	=166	=166	=166	=166	=166
1gg_	8g 8G	4E	4E	[1cc	1b-_	[1c	[1E	1ee_	[1e	2c	8c
.	8g 8G	.	.	.	.	.	.	.	.	.	8cc
.	8G 8g	4E	4E	.	.	.	.	.	.	.	8cc
.	8g 8G	.	.	.	.	.	.	.	.	.	8cc
.	8G 8g	4E	4E	.	.	.	.	.	.	4dd-	8cc
.	8g 8G	.	.	.	.	.	.	.	.	.	8cc
.	8g 8G	4E	4E	.	.	.	.	.	.	4cc	8cc
.	8g 8G	.	.	.	.	.	.	.	.	.	8cc
=167	=167	=167	=167	=167	=167	=167	=167	=167	=167	=167	=167
1gg]	8e	4E	4E	2.cc]	2b-]	1c]	1E]	1ee]	1e]	4aa-	8cc 8g
.	8e	.	.	.	.	.	.	.	.	.	8g 8cc
.	8e	4E	4E	.	.	.	.	.	.	4gg	8g 8cc
.	8e	.	.	.	.	.	.	.	.	.	8g 8cc
.	8e	4E	4E	.	2cc	.	.	.	.	8ccc	8g 8cc
.	8e	.	.	.	.	.	.	.	.	8bb-	8g 8cc
.	8e	4E	4E	4gg	.	.	.	.	.	8ccc	8g 8cc
.	8e	.	.	.	.	.	.	.	.	8bb-	8cc 8g
=168	=168	=168	=168	=168	=168	=168	=168	=168	=168	=168	=168
4aa-	4f	4F	4F	4aa-	4cc	4F	4F	1r	1r	4aa-	4a- 4cc
4aa-	4cc	4c	4c	4aa-	4cc	4c	4c	.	.	4aa-	4a- 4cc
4r	4cc	4E	4E	4r	4r	4E	4E	.	.	8ccc	8ccc
.	.	.	.	.	.	.	.	.	.	8bb-	8bb-
4bb-	4cc	4c	4c	4bb-	4gg	4c	4c	.	.	8cc	8cc
.	.	.	.	.	.	.	.	.	.	8bb-	8bb-
=169	=169	=169	=169	=169	=169	=169	=169	=169	=169	=169	=169
4aa-	4cc	4F	4F	4aa-	4aa-	4F	4F	2.r	2.r	4aa-	4aa-
4aa-	4cc	4c	4c	4aa-	4ff	4c	4c	.	.	4r	4r
4r	4b-	4D	4D	4r	4r	4D	4D	.	.	8bb-	8bb-
.	.	.	.	.	.	.	.	.	.	8aa-	8aa-
4ff	4b-	4B-	4B-	4ff	4ff	4B-	4B-	4dd	4g	8b-	8b-
.	.	.	.	.	.	.	.	.	.	8aa-	8aa-
=170	=170	=170	=170	=170	=170	=170	=170	=170	=170	=170	=170
4gg	4b-	4E-	4E-	4gg	4gg	4E-	4E-	4ee	4cc	4gg	4gg
4gg	4b-	4B-	4B-	4gg	4ee-	4B-	4B-	4ee	4cc	4gg	4gg
4r	4b-	4D	4D	4r	4r	4D	4D	4r	4r	8bb-	8bb-
.	.	.	.	.	.	.	.	.	.	8aa-	8aa-
4aa-	4b-	4B-	4B-	4aa-	4ff	4B-	4B-	4dd	4g	8b-	8b-
.	.	.	.	.	.	.	.	.	.	8aa-	8aa-
=171	=171	=171	=171	=171	=171	=171	=171	=171	=171	=171	=171
4gg	4b-	4E-	4E-	4gg	4gg	4E-	4E-	4ee	4cc	4gg	4gg
4gg	4b-	4B-	4B-	4gg	4ee-	4B-	4B-	4ee	4cc	4r	4r
4r	4g	4BB	4BB	4r	4r	4BB	4BB	4r	4r	8gg	8gg
.	.	.	.	.	.	.	.	.	.	8ff	8ff
4ff	4g	4G	4G	4ff	4dd	4G	4G	4ee	4e	8g	8g
.	.	.	.	.	.	.	.	.	.	8ff	8ff
=172	=172	=172	=172	=172	=172	=172	=172	=172	=172	=172	=172
4ee-	4g	4C	4C	4ee-	4ee-	4C	4C	4ee	4e	4ee-	4ee-
4ee-	4g	4G	4G	4ee-	4cc	4G	4G	4ee	4e	4r	4r
4r	4e-	4GG	4GG	4r	4r	4GG	4GG	4r	4r	8ee-	8ee-
.	.	.	.	.	.	.	.	.	.	8dd-	8dd-
4dd-	4e-	4E-	4E-	4dd-	4b-	4E-	4E-	4cc	4c	8e-	8e-
.	.	.	.	.	.	.	.	.	.	8dd-	8dd-
=173	=173	=173	=173	=173	=173	=173	=173	=173	=173	=173	=173
4r	4e-	4AA-	4AA-	4r	4r	4AA-	4AA-	4cc	4c	8dd-	8dd-
.	.	.	.	.	.	.	.	.	.	8cc	8cc
8cc	2f	4F	4F	8cc	8cc	4F	4F	2.r	2.r	8cc	8cc
8ee-	.	.	.	8ee-	8ee-	.	.	.	.	8ee-	8ee-
4r	.	4BB-	4BB-	4r	4r	4BB-	4BB-	.	.	8ee-	8ee-
.	.	.	.	.	.	.	.	.	.	8dd	8dd
8dd	[4g	4G	4G	8dd	8dd	4G	4G	.	.	8dd	8dd
8ff	.	.	.	8ff	8ff	.	.	.	.	8ff	8ff
=174	=174	=174	=174	=174	=174	=174	=174	=174	=174	=174	=174
4r	4g]	4C	4C	4r	4r	4C	4C	1r	1r	8ff	8ff
.	.	.	.	.	.	.	.	.	.	8ee-	8ee-
8ee-	2a-	4A-	4A-	8ee-	8ee-	4A-	4A-	.	.	8ee-	8ee-
8gg	.	.	.	8gg	8gg	.	.	.	.	8gg	8gg
4r	.	4D	4D	4r	4r	4D	4D	.	.	8gg	8gg
.	.	.	.	.	.	.	.	.	.	8ff	8ff
8ff	4b-	4B-	4B-	8ff	8ff	4B-	4B-	.	.	8ff	8ff
8aa-	.	.	.	8aa-	8aa-	.	.	.	.	8aa-	8aa-
=175	=175	=175	=175	=175	=175	=175	=175	=175	=175	=175	=175
4gg	4e-	4E-	4E-	4gg	4gg	4E-	4E-	1r	1r	8gg	8gg
.	.	.	.	.	.	.	.	.	.	8b-	8b-
4dd	4a-	4A-	4A-	4dd	4dd	4A-	4A-	.	.	8cc	8cc
.	.	.	.	.	.	.	.	.	.	8dd	8dd
8ee-	8g	8G	8G	8ee-	8ee-	8G	8G	.	.	8ee-	8ee-
8ff	8f	8F	8F	8ff	8ff	8F	8F	.	.	8ff	8ff
8gg	8e-	8E-	8E-	8gg	8gg	8E-	8E-	.	.	8gg	8gg
8ff	8d	8D	8D	8ff	8ff	8D	8D	.	.	8ff	8ff
=176	=176	=176	=176	=176	=176	=176	=176	=176	=176	=176	=176
2ee-	4c	4C	4C	1ee-	2.ee-	4C	4C	1r	1r	8ee-	8ee-
.	.	.	.	.	.	.	.	.	.	8dd	8dd
.	4e-	4E-	4E-	.	.	4E-	4E-	.	.	8cc	8cc
.	.	.	.	.	.	.	.	.	.	8b-	8b-
2aa	4f	4F	4F	.	.	4F	4F	.	.	8a	8a
.	.	.	.	.	.	.	.	.	.	8g	8g
.	4a	4A	4A	.	4a	4A	4A	.	.	8f	8f
.	.	.	.	.	.	.	.	.	.	8e-	8e-
=177	=177	=177	=177	=177	=177	=177	=177	=177	=177	=177	=177
[1bb-	4b-	4B-	4B-	4dd	4b-	4B-	4B-	[1g	[1G	4d	4d
.	4f	4F	4F	4ff	4ff	4F	4F	.	.	8f	8f
.	.	.	.	.	.	.	.	.	.	8b-	8b-
.	4g	4G	4G	4gg	4gg	4G	4G	.	.	8g	8g
.	.	.	.	.	.	.	.	.	.	8b-	8b-
.	4e-	4E-	4E-	4ee-	4ee-	4E-	4E-	.	.	8e-	8e-
.	.	.	.	.	.	.	.	.	.	8b-	8b-
=178	=178	=178	=178	=178	=178	=178	=178	=178	=178	=178	=178
1bb-_	4B-	4BB-	4BB-	4dd	4dd	4BB-	4BB-	1g_	1G_	8d	8d
.	.	.	.	.	.	.	.	.	.	8b-	8b-
.	4f#	4F#	4F#	4ff#	4ff#	4F#	4F#	.	.	8f#	8f#
.	.	.	.	.	.	.	.	.	.	8b-	8b-
.	4g	4G	4G	4gg	4gg	4G	4G	.	.	8g	8g
.	.	.	.	.	.	.	.	.	.	8b-	8b-
.	4e-	4E-	4E-	4ee-	4ee-	4E-	4E-	.	.	8e-	8e-
.	.	.	.	.	.	.	.	.	.	8b-	8b-
=179	=179	=179	=179	=179	=179	=179	=179	=179	=179	=179	=179
1bb-_	4B-	4BB-	4BB-	4dd	4dd	4BB-	4BB-	1g_	1G_	8d	8d
.	.	.	.	.	.	.	.	.	.	8b-	8b-
.	4a-	4A-	4A-	4aa-	4aa-	4A-	4A-	.	.	8a-	8a-
.	.	.	.	.	.	.	.	.	.	8b-	8b-
.	4g	4G	4G	4gg	4gg	4G	4G	.	.	8g	8g
.	.	.	.	.	.	.	.	.	.	8b-	8b-
.	4e-	4E-	4E-	4ee-	4ee-	4E-	4E-	.	.	8e-	8e-
.	.	.	.	.	.	.	.	.	.	8b-	8b-
=180	=180	=180	=180	=180	=180	=180	=180	=180	=180	=180	=180
4bb-]	8B-	8B-	8B-	4bb-	4bb-	8B-	8B-	4g]	4G]	4d	4d
.	8A	8A	8A	.	.	8A	8A	.	.	.	.
2.r	8B-	8B-	8B-	2.r	2.r	8B-	8B-	2.r	2.r	4b-	4b-
.	8c	8c	8c	.	.	8c	8c	.	.	.	.
.	8B-	8B-	8B-	.	.	8B-	8B-	.	.	2r	2r
.	8A-	8A-	8A-	.	.	8A-	8A-	.	.	.	.
.	8G	8G	8G	.	.	8G	8G	.	.	.	.
.	8F	8F	8F	.	.	8F	8F	.	.	.	.
=181	=181	=181	=181	=181	=181	=181	=181	=181	=181	=181	=181
1r	4E-	4E-	4E-	1r	1r	4E-	4E-	1r	1r	1r	2B-
.	2.r	2.r	2.r	.	.	2.r	2.r	.	.	.	.
.	.	.	.	.	.	.	.	.	.	.	4g
.	.	.	.	.	.	.	.	.	.	.	4e-
=182	=182	=182	=182	=182	=182	=182	=182	=182	=182	=182	=182
1r	1r	2BB-	2BB-	1r	1r	1r	1r	1r	1r	1r	4d
.	.	.	.	.	.	.	.	.	.	.	4cc
.	.	4A-	4A-	.	.	.	.	.	.	.	4b-
.	.	4F	4F	.	.	.	.	.	.	.	4r
=183	=183	=183	=183	=183	=183	=183	=183	=183	=183	=183	=183
1r	1r	4E-	4E-	1r	1r	1r	1r	1r	1r	8g	2B-
.	.	.	.	.	.	.	.	.	.	8b-	.
.	.	4A-	4A-	.	.	.	.	.	.	8f	.
.	.	.	.	.	.	.	.	.	.	8dd	.
.	.	4G	4G	.	.	.	.	.	.	8ee-	4g
.	.	.	.	.	.	.	.	.	.	8gg	.
.	.	4r	4r	.	.	.	.	.	.	8bb-	4e-
.	.	.	.	.	.	.	.	.	.	8bb-	.
=184	=184	=184	=184	=184	=184	=184	=184	=184	=184	=184	=184
1r	1r	2BB-	2BB-	1r	1r	1r	1r	1r	1r	8bb-	4d
.	.	.	.	.	.	.	.	.	.	8aa-	.
.	.	.	.	.	.	.	.	.	.	8ff	4cc
.	.	.	.	.	.	.	.	.	.	8ee-	.
.	.	4A-	4A-	.	.	.	.	.	.	8dd	4b-
.	.	.	.	.	.	.	.	.	.	8cc	.
.	.	4F	4F	.	.	.	.	.	.	8b-	4r
.	.	.	.	.	.	.	.	.	.	8a-	.
=185	=185	=185	=185	=185	=185	=185	=185	=185	=185	=185	=185
1r	1r	4E-	4E-	1r	1r	1r	1r	1r	1r	8g	2B-
.	.	.	.	.	.	.	.	.	.	8a-	.
.	.	4A-	4A-	.	.	.	.	.	.	8f	.
.	.	.	.	.	.	.	.	.	.	8g	.
.	.	4G	4G	.	.	.	.	.	.	8e-	4g
.	.	.	.	.	.	.	.	.	.	8bb-	.
.	.	4r	4r	.	.	.	.	.	.	8bb-	4e-
.	.	.	.	.	.	.	.	.	.	8bb-	.
=186	=186	=186	=186	=186	=186	=186	=186	=186	=186	=186	=186
1r	1r	2BB-	2BB-	1r	1r	1r	1r	1r	1r	8bb-	4d
.	.	.	.	.	.	.	.	.	.	8aa-	.
.	.	.	.	.	.	.	.	.	.	8ff	4cc
.	.	.	.	.	.	.	.	.	.	8ee-	.
.	.	4A-	4A-	.	.	.	.	.	.	8dd	4b-
.	.	.	.	.	.	.	.	.	.	8cc	.
.	.	4F	4F	.	.	.	.	.	.	8b-	4a-
.	.	.	.	.	.	.	.	.	.	8a-	.
=187	=187	=187	=187	=187	=187	=187	=187	=187	=187	=187	=187
1r	1r	4E-	4E-	1r	1r	1r	1r	1r	1r	8g	8g
.	.	.	.	.	.	.	.	.	.	8a-	8a-
.	.	4D	4D	.	.	.	.	.	.	8f	8f
.	.	.	.	.	.	.	.	.	.	8g	8g
.	.	4C	4C	.	.	.	.	.	.	8e-	8e-
.	.	.	.	.	.	.	.	.	.	8f	8f
.	.	4BB-	4BB-	.	.	.	.	.	.	8d	8d
.	.	.	.	.	.	.	.	.	.	8e-	8e-
=188	=188	=188	=188	=188	=188	=188	=188	=188	=188	=188	=188
1r	2c	4AA-	4AA-	1r	1r	1r	1r	1r	1r	8c	8c
.	.	.	.	.	.	.	.	.	.	8f	8f
.	.	4A-	4A-	.	.	.	.	.	.	8f	8f
.	.	.	.	.	.	.	.	.	.	8f	8f
.	2d	4BB-	4BB-	.	.	.	.	.	.	8d	8d
.	.	.	.	.	.	.	.	.	.	8g	8g
.	.	4B-	4B-	.	.	.	.	.	.	8g	8g
.	.	.	.	.	.	.	.	.	.	8g	8g
=189	=189	=189	=189	=189	=189	=189	=189	=189	=189	=189	=189
1r	2e-	4C	4C	1r	1r	1r	1r	1r	1r	8e-	8e-
.	.	.	.	.	.	.	.	.	.	8a-	8a-
.	.	4c	4c	.	.	.	.	.	.	8a-	8a-
.	.	.	.	.	.	.	.	.	.	8a-	8a-
.	2f	4D	4D	.	.	.	.	.	.	8f	8f
.	.	.	.	.	.	.	.	.	.	8b-	8b-
.	.	4d	4d	.	.	.	.	.	.	8b-	8b-
.	.	.	.	.	.	.	.	.	.	8b-	8b-
=190	=190	=190	=190	=190	=190	=190	=190	=190	=190	=190	=190
1r	4g	4E-	4E-	4r	[1b-	1r	1r	1r	1r	8g	8g
.	.	.	.	.	.	.	.	.	.	8ee-	8ee-
.	2b-	4G	4G	4ee-	.	.	.	.	.	8ee-	8ee-
.	.	.	.	.	.	.	.	.	.	8ee-	8ee-
.	.	4F	4F	4dd	.	.	.	.	.	8dd	8dd
.	.	.	.	.	.	.	.	.	.	8ff	8ff
.	[4b-	4A-	4A-	4ff	.	.	.	.	.	8ff	8ff
.	.	.	.	.	.	.	.	.	.	8ff	8ff
=191	=191	=191	=191	=191	=191	=191	=191	=191	=191	=191	=191
1r	4b-]	4G	4G	4ee-	1b-]	1r	1r	4r	4r	8ee-	8ee-
.	.	.	.	.	.	.	.	.	.	8gg	8gg
.	2b-	4E-	4E-	4gg	.	.	.	4ee	4cc	8gg	8gg
.	.	.	.	.	.	.	.	.	.	8gg	8gg
.	.	4D	4D	4ff	.	.	.	4dd	4g	8ff	8ff
.	.	.	.	.	.	.	.	.	.	8aa-	8aa-
.	4b-	4F	4F	4aa-	.	.	.	4dd	4g	8aa-	8aa-
.	.	.	.	.	.	.	.	.	.	8aa-	8aa-
=192	=192	=192	=192	=192	=192	=192	=192	=192	=192	=192	=192
4gg	4b-	4E-	4E-	4gg	4b-	4E-	4E-	4ee	4cc	4gg	4gg
2bb-	2g	2G	2G	2bb-	2e-	2G	2G	2.r	2.r	2bb-	2b- 2e-
4ddd-	4f	4F	4F	4dd-	4a-	4F	4F	.	.	4dd-	4a-
=193	=193	=193	=193	=193	=193	=193	=193	=193	=193	=193	=193
4ccc	4e 4G	4E	4E	4cc	4g	4E	4E	1r	1r	4cc	4g
2ccc	2G 2e	2C	2C	2ccc	2g	2C	2C	.	.	2ccc	2G 2e
4bb-	4G 4e	4E	4E	4bb-	4cc	4E	4E	.	.	4bb-	4g
=194	=194	=194	=194	=194	=194	=194	=194	=194	=194	=194	=194
4aa	4f	4F	4F	4aa	4cc	4F	4F	1r	1r	4aa	4c
2aa-	2B-	2D	2D	2aa-	2ff	2D	2D	.	.	2aa-	2B- 2f
4gg	4e-	4E-	4E-	4gg	4ee-	4E-	4E-	.	.	4gg	4g
=195	=195	=195	=195	=195	=195	=195	=195	=195	=195	=195	=195
4ff	4A-	4A-	4A-	4ff	4ee-	4A-	4A-	1r	1r	4ff	4c
2gg-	2A	2A	2A	2gg-	2ee-	2A	2A	.	.	2gg-	2c 2e-
4ee-	4A	4AA	4AA	4ee-	4cc	4AA	4AA	.	.	4ee-	4cc
=196	=196	=196	=196	=196	=196	=196	=196	=196	=196	=196	=196
4dd	4B-	4BB-	4BB-	4dd	4b-	4BB-	4BB-	1r	1r	4dd	4b-
2ccc	2c	2C	2C	2ccc	2aa-	2C	2C	.	.	2cc	2a-
8bb-	4d	4D	4D	8bb-	8gg	4D	4D	.	.	8b-	8g
8aa-	.	.	.	8aa-	8ff	.	.	.	.	8a-	8f
=197	=197	=197	=197	=197	=197	=197	=197	=197	=197	=197	=197
4gg	4e-	4E-	4E-	4gg	4ee-	4E-	4E-	1r	1r	4g	4e-
4eee-	4G	4GG	4GG	4bb-	4ee-	4GG	4GG	.	.	4ee-	4B-
4ff	4A-	4AA-	4AA-	4aa-	4cc	4AA-	4AA-	.	.	4f	4c
4ccc	4A-	4AA-	4AA-	4ff	4a-	4AA-	4AA-	.	.	4cc	4c
=198	=198	=198	=198	=198	=198	=198	=198	=198	=198	=198	=198
4ee-	4B-	4BB-	4BB-	2ee-	2g	4BB-	4BB-	2ee	2cc	4e-	4e- 4G
4gg	4B-	4BB-	4BB-	.	.	4BB-	4BB-	.	.	4g	4e- 4G
4a-	4B-	4BB-	4BB-	2dd	2f	4BB-	4BB-	2dd	2g	4A-	4A- 4d
4dd	4B-	4BB-	4BB-	.	.	4BB-	4BB-	.	.	4d	4A- 4d
=199	=199	=199	=199	=199	=199	=199	=199	=199	=199	=199	=199
4ee-	4B-	4E-	4E-	4ee-	4g	4E-	4E-	4cc	4e	4G	4G 4e-
2.r	2.r	2.r	2.r	2.r	2.r	2.r	2.r	2.r	2.r	4e-	2.r
.	.	.	.	.	.	.	.	.	.	2r	.
=200	=200	=200	=200	=200	=200	=200	=200	=200	=200	=200	=200
1r	1g	1c	1c	1r	1r	1r	1r	1r	1r	2ee	1b-
.	.	.	.	.	.	.	.	.	.	8ccc	.
.	.	.	.	.	.	.	.	.	.	8bb-	.
.	.	.	.	.	.	.	.	.	.	8aa-	.
.	.	.	.	.	.	.	.	.	.	8gg	.
=201	=201	=201	=201	=201	=201	=201	=201	=201	=201	=201	=201
1r	4a-	4f	4f	1r	1r	1r	1r	1r	1r	4aa-	4a-
.	4a-	4f	4f	.	.	.	.	.	.	4aa-	4a-
.	2r	2r	2r	.	.	.	.	.	.	2r	2r
=202	=202	=202	=202	=202	=202	=202	=202	=202	=202	=202	=202
1r	1f	1B-	1B-	1r	1r	1r	1r	1r	1r	2dd	1a-
.	.	.	.	.	.	.	.	.	.	8bb-	.
.	.	.	.	.	.	.	.	.	.	8aa-	.
.	.	.	.	.	.	.	.	.	.	8gg	.
.	.	.	.	.	.	.	.	.	.	8ff	.
=203	=203	=203	=203	=203	=203	=203	=203	=203	=203	=203	=203
1r	4g	4e-	4e-	1r	1r	1r	1r	1r	1r	4ee-	4g
.	4g	4e-	4e-	.	.	.	.	.	.	4ee-	4g
.	4a-	4A-	4A-	.	.	.	.	.	.	8ff	8a-
.	.	.	.	.	.	.	.	.	.	8gg	8b-
.	4A-	4A-	4A-	.	.	.	.	.	.	8aa-	8cc
.	.	.	.	.	.	.	.	.	.	8ff	8a-
=204	=204	=204	=204	=204	=204	=204	=204	=204	=204	=204	=204
1r	4B-	4B-	4B-	1r	1r	1r	1r	1r	1r	4ee-	4g
.	4r	4r	4r	.	.	.	.	.	.	4r	4r
.	4F	4BB-	4BB-	.	.	.	.	.	.	4b-	4d 4A-
.	4r	4r	4r	.	.	.	.	.	.	4r	4r
=205	=205	=205	=205	=205	=205	=205	=205	=205	=205	=205	=205
4g	4E-	4E-	4E-	4ee-	4g	4E-	4E-	4cc	4e	4g	4e-
4g	4E-	4E-	4E-	4ee-	4g	4E-	4E-	4cc	4e	4g	4e-
8f	2r	2r	2r	2r	2r	2r	2r	2r	2r	8f	8d
8g	.	.	.	.	.	.	.	.	.	8g	8e-
8a-	.	.	.	.	.	.	.	.	.	8a-	8f
8f	.	.	.	.	.	.	.	.	.	8f	8d
=206	=206	=206	=206	=206	=206	=206	=206	=206	=206	=206	=206
4g	4B-	4E-	4E-	4ee-	4g	4E-	4E-	4cc	4e	4g	4e-
4g	4B-	4E-	4E-	4ee-	4g	4E-	4E-	4cc	4e	4g	4e-
8a-	2r	2r	2r	2r	2r	2r	2r	2r	2r	8a-	8f
8b-	.	.	.	.	.	.	.	.	.	8b-	8g
8cc	.	.	.	.	.	.	.	.	.	8cc	8a-
8a-	.	.	.	.	.	.	.	.	.	8a-	8f
=207	=207	=207	=207	=207	=207	=207	=207	=207	=207	=207	=207
4b-	1r	4E-	4E-	4gg	4b-	4E-	4E-	4ee	4cc	4b-	4g
4b-	.	4E-	4E-	4gg	4b-	4E-	4E-	4ee	4cc	4b-	4g
8dd	.	2r	2r	2r	2r	2r	2r	2r	2r	8dd	8f
8ee-	.	.	.	.	.	.	.	.	.	8ee-	8g
8ff	.	.	.	.	.	.	.	.	.	8ff	8a-
8dd	.	.	.	.	.	.	.	.	.	8dd	8f
=208	=208	=208	=208	=208	=208	=208	=208	=208	=208	=208	=208
4ee-	1r	4E-	4E-	4gg	4b-	4E-	4E-	4ee	4cc	4ee-	4g
4ee-	.	4E-	4E-	4gg	4b-	4E-	4E-	4ee	4cc	4ee-	4g
8ff	.	2r	2r	2r	2r	2r	2r	2r	2r	8ff	8dd
8gg	.	.	.	.	.	.	.	.	.	8gg	8ee-
8aa-	.	.	.	.	.	.	.	.	.	8aa-	8ff
8ff	.	.	.	.	.	.	.	.	.	8ff	8dd
=209	=209	=209	=209	=209	=209	=209	=209	=209	=209	=209	=209
4gg	1r	4E-	4E-	4gg	4ee-	4E-	4E-	4ee	4cc	4gg	4ee-
4gg	.	4E-	4E-	4gg	4ee-	4E-	4E-	4ee	4cc	4gg	4ee-
2r	.	2r	2r	8ff	8dd	2r	2r	4dd	4g	2r	2r
.	.	.	.	8gg	8ee-	.	.	.	.	.	.
.	.	.	.	8aa-	8ff	.	.	4dd	4g	.	.
.	.	.	.	8ff	8dd	.	.	.	.	.	.
=210	=210	=210	=210	=210	=210	=210	=210	=210	=210	=210	=210
1r	1r	1r	1r	4gg	4ee-	1r	1r	4ee	4cc	1r	1r
.	.	.	.	4gg	4ee-	.	.	4ee	4cc	.	.
.	.	.	.	8ff	8dd	.	.	4dd	4g	.	.
.	.	.	.	8gg	8ee-	.	.	.	.	.	.
.	.	.	.	8aa-	8ff	.	.	4dd	4g	.	.
.	.	.	.	8ff	8dd	.	.	.	.	.	.
=211	=211	=211	=211	=211	=211	=211	=211	=211	=211	=211	=211
1r	1r	1r	1r	4gg	4ee-	1r	1r	4ee	4cc	2B-	2B-
.	.	.	.	4gg	4ee-	.	.	4ee	4cc	.	.
.	.	.	.	2r	2r	.	.	2r	2r	4g	4g
.	.	.	.	.	.	.	.	.	.	4e-	4e-
=212	=212	=212	=212	=212	=212	=212	=212	=212	=212	=212	=212
1r	1r	1r	1r	4aa-	4dd	1r	1r	4dd	4g	4d	4d
.	.	.	.	4aa-	4dd	.	.	4dd	4g	4cc	4cc
.	.	.	.	2r	2r	.	.	2r	2r	4b-	4b-
.	.	.	.	.	.	.	.	.	.	4r	4r
=213	=213	=213	=213	=213	=213	=213	=213	=213	=213	=213	=213
1r	1r	1r	1r	4gg	4ee-	1r	1r	4ee	4cc	2b-	2B-
.	.	.	.	4gg	4ee-	.	.	4ee	4cc	.	.
.	.	.	.	2r	2r	.	.	2r	2r	4gg	4g
.	.	.	.	.	.	.	.	.	.	4ee-	4e-
=214	=214	=214	=214	=214	=214	=214	=214	=214	=214	=214	=214
1r	1r	1r	1r	4aa-	4dd	1r	1r	4dd	4g	4dd	4d
.	.	.	.	4aa-	4dd	.	.	4dd	4g	4ccc	4cc
.	.	.	.	2r	2r	.	.	2r	2r	4bb-	4b-
.	.	.	.	.	.	.	.	.	.	4r	4r
=215	=215	=215	=215	=215	=215	=215	=215	=215	=215	=215	=215
4eee-	4g	4G	4G	4ee-	4b-	4G	4G	4ee	4cc	4eee-	4b- 4e-
4eee-	4g	4G	4G	4ee-	4b-	4G	4G	4ee	4cc	4eee-	4e- 4b-
4ddd	4a-	4A-	4A-	4dd	4b-	4A-	4A-	4dd	4g	8ddd	4b- 4f
.	.	.	.	.	.	.	.	.	.	8eee-	.
4ddd	4a-	4A-	4A-	4dd	4b-	4A-	4A-	4dd	4g	8fff	4f 4b-
.	.	.	.	.	.	.	.	.	.	8ddd	.
=216	=216	=216	=216	=216	=216	=216	=216	=216	=216	=216	=216
4eee-	4g	4G	4G	4ee-	4b-	4G	4G	4ee	4cc	4eee-	4b- 4e-
4eee-	4g	4G	4G	4ee-	4b-	4G	4G	4ee	4cc	4eee-	4e- 4b-
4ddd	4a-	4A-	4A-	4dd	4b-	4A-	4A-	4dd	4g	8ddd	4b- 4f
.	.	.	.	.	.	.	.	.	.	8eee-	.
4ddd	4a-	4A-	4A-	4dd	4b-	4A-	4A-	4dd	4g	8fff	4f 4b-
.	.	.	.	.	.	.	.	.	.	8ddd	.
=217	=217	=217	=217	=217	=217	=217	=217	=217	=217	=217	=217
4eee-	4g	4G	4G	4ee-	4b-	4G	4G	4ee	4cc	4eee-	4e- 4b-
4r	4r	4r	4r	4r	4r	4r	4r	4r	4r	4r	4r
4ccc	4a-	4A-	4A-	4ccc	4e-	4A-	4A-	4cc	4cc	4ccc	4e- 4cc
4r	4r	4r	4r	4r	4r	4r	4r	4r	4r	4r	4r
=218	=218	=218	=218	=218	=218	=218	=218	=218	=218	=218	=218
4bb-	4b-	4B-	4B-	4bb-	4g	4B-	4B-	4ee	4cc	4bb-	4b- 4g
4r	4r	4r	4r	4r	4r	4r	4r	4r	4r	4r	4r
4dd	4B-	4BB-	4BB-	4dd	4a-	4BB-	4BB-	4dd	4g	4dd	4dd 4f
4r	4r	4r	4r	4r	4r	4r	4r	4r	4r	4r	4r
=219	=219	=219	=219	=219	=219	=219	=219	=219	=219	=219	=219
1r	1B-	4E-	4E-	1dd-	1g	1r	1r	4cc	4c	2dd-	2G
.	.	4E-	4E-	.	.	.	.	2.r	2.r	.	.
.	.	4E-	4E-	.	.	.	.	.	.	4b-	4B-
.	.	4E-	4E-	.	.	.	.	.	.	4g	4d-
=220	=220	=220	=220	=220	=220	=220	=220	=220	=220	=220	=220
1r	4c	4E-	4E-	1cc	1a-	1r	1r	1r	1r	4a-	4c
.	2.r	4E-	4E-	.	.	.	.	.	.	4ff	2.r
.	.	4E-	4E-	.	.	.	.	.	.	4ee-	.
.	.	4E-	4E-	.	.	.	.	.	.	4r	.
=221	=221	=221	=221	=221	=221	=221	=221	=221	=221	=221	=221
1r	1F	4E-	4E-	1aa-	1dd	1r	1r	1r	1r	2a-	2d
.	.	4E-	4E-	.	.	.	.	.	.	.	.
.	.	4E-	4E-	.	.	.	.	.	.	4f	4f
.	.	4E-	4E-	.	.	.	.	.	.	4d	4A-
=222	=222	=222	=222	=222	=222	=222	=222	=222	=222	=222	=222
1r	4G	4E-	4E-	1gg	1ee-	1r	1r	1r	1r	4e-	4G
.	2.r	4E-	4E-	.	.	.	.	.	.	4cc	2.r
.	.	4E-	4E-	.	.	.	.	.	.	4b-	.
.	.	4E-	4E-	.	.	.	.	.	.	4r	.
=223	=223	=223	=223	=223	=223	=223	=223	=223	=223	=223	=223
1r	1B-	4E-	4E-	1r	1r	1d-	1G	[1cc	[1c	8G	2dd-
.	.	.	.	.	.	.	.	.	.	8A-	.
.	.	4E-	4E-	.	.	.	.	.	.	8B-	.
.	.	.	.	.	.	.	.	.	.	8c	.
.	.	4E-	4E-	.	.	.	.	.	.	8d-	4b-
.	.	.	.	.	.	.	.	.	.	8e-	.
.	.	4E-	4E-	.	.	.	.	.	.	8f	4g
.	.	.	.	.	.	.	.	.	.	8g	.
=224	=224	=224	=224	=224	=224	=224	=224	=224	=224	=224	=224
1r	4c	4E-	4E-	1r	1r	1c	1A-	1cc_	1c_	4a-	4a-
.	2.r	4E-	4E-	.	.	.	.	.	.	2.r	4ff
.	.	4E-	4E-	.	.	.	.	.	.	.	4ee-
.	.	4E-	4E-	.	.	.	.	.	.	.	4r
=225	=225	=225	=225	=225	=225	=225	=225	=225	=225	=225	=225
1r	1A-	4E-	4E-	1r	1r	1d	1F	1cc_	1c_	8d	2a-
.	.	.	.	.	.	.	.	.	.	8e-	.
.	.	4E-	4E-	.	.	.	.	.	.	8f	.
.	.	.	.	.	.	.	.	.	.	8g	.
.	.	4E-	4E-	.	.	.	.	.	.	8a-	4f
.	.	.	.	.	.	.	.	.	.	8cc	.
.	.	4E-	4E-	.	.	.	.	.	.	8b-	4d
.	.	.	.	.	.	.	.	.	.	8a-	.
=226	=226	=226	=226	=226	=226	=226	=226	=226	=226	=226	=226
4r	4G	4E-	4E-	4r	4r	4e-	4G	2cc]	2c]	4g	4e-
4ccc	2r	2r	2r	4ccc	4cc	4c	4c	.	.	2r	4cc
4bb-	.	.	.	4bb-	4b-	4B-	4B-	4r	4r	.	4b-
4r	4B-	4BB-	4BB-	4r	4r	4r	4r	4dd	4g	4b- 4aa-	4b- 4ff
=227	=227	=227	=227	=227	=227	=227	=227	=227	=227	=227	=227
4r	4B-	4E-	4E-	4r	4r	4r	4r	4ee	4cc	4gg 4b-	4gg 4b-
4ccc	2r	2r	2r	4ccc	4cc	4c	4c	2r	2r	2r	2r
4bb-	.	.	.	4bb-	4b-	4B-	4B-	.	.	.	.
4r	4B-	4BB-	4BB-	4r	4r	4r	4r	4dd	4g	4aa- 4b-	4ff 4b-
=228	=228	=228	=228	=228	=228	=228	=228	=228	=228	=228	=228
4r	4B-	4E-	4E-	4r	4r	4r	4r	4ee	4cc	4b- 4gg	4gg 4b-
4ccc	2r	2r	2r	4ccc	4cc	4c	4c	2r	2r	2r	2r
4bb-	.	.	.	4bb-	4b-	4B-	4B-	.	.	.	.
4ddd	4B-	4BB-	4BB-	4aa-	4ff	4BB-	4BB-	4dd	4g	4aa- 4b-	4ff 4b-
=229	=229	=229	=229	=229	=229	=229	=229	=229	=229	=229	=229
4eee-	4B-	4E-	4E-	4gg	4ee-	4E-	4E-	4ee	4cc	4b- 4gg	4gg 4b-
4aa-	4B-	4BB-	4BB-	4aa-	4ff	4BB-	4BB-	4dd	4g	4aa- 4b-	4ff 4b-
4gg	4B-	4E-	4E-	4gg	4ee-	4E-	4E-	4ee	4cc	4gg 4b-	4gg 4b-
4aa-	4B-	4BB-	4BB-	4aa-	4ff	4BB-	4BB-	4dd	4g	4aa- 4b-	4ff 4b-
=230	=230	=230	=230	=230	=230	=230	=230	=230	=230	=230	=230
2gg	2B-	2E-	2E-	2gg	2ee-	2E-	2E-	2ee	2cc	2gg 2b-	2gg 2b-
2eee-	2G	2EE-	2EE-	2gg	2ee-	2EE-	2EE-	2cc	2e	2e- 2G	2G 2e-
=231	=231	=231	=231	=231	=231	=231	=231	=231	=231	=231	=231
2eee-	2E-	2EE-	2EE-	2gg	2ee-	2EE-	2EE-	2cc	2e	2e- 2G	2G 2e-
2r	2r	2r	2r	2r	2r	2r	2r	2r	2r	2r	2r
==	==	==	==	==	==	==	==	==	==	==	==
*-	*-	*-	*-	*-	*-	*-	*-	*-	*-	*-	*-
!!!RWG1: This file contains only pitch and duration data.
!!!RWG2: Transposing instruments are not transposed.
!!!RWG3: Spines may have incompatible meters.
!!!RWG4: Durations of rests and tied notes may be interpreted.
!!!RWG: Key is interpreted using the Humdrum key tool.
!!!AFT: stage1
!!!END: 1997/04/15
!!format changes:
!!content changes:
!!public access: complete
!!!KEY: 3813001827
!!!EMD: Converted from MuseData to Humdrum Dec 16, 2000, by Andreas Kornstaedt using muse2kern.
